;FLAVOR:Marlin
;TIME:7698
;Filament used: 6.2226m
;Layer height: 0.2
;Generated with Cura_SteamEngine 3.6.0
M140 S65
M105
M190 S65
M104 S215
M105
M109 S215
M82 ;absolute extrusion mode
G21 ;metric values
G90 ;absolute positioning
M82 ;set extruder to absolute mode
M107 ;start with the fan off
G28 X0 Y0 ;move X/Y to min endstops
G28 Z0 ;move Z to min endstops
M117 Auto-level...
G29 L1  ;load autolevel
G29 A   ;enable UBL
M117 Preparing...
G1 Z15.0 F9000 ;move the platform down 15mm
G92 E0 ;zero the extruded length
G1 F200 E3 ;extrude 3mm of feed stock
G92 E0 ;zero the extruded length again
G1 F9000
M117 Printing...
G92 E0
G1 F1500 E-6.5
;LAYER_COUNT:36
;LAYER:0
M107
G0 F822.9 X53.17 Y37.796 Z0.3
;TYPE:SKIRT
G1 F1500 E0
G1 F480 X53.465 Y37.385 E0.02524
G1 X53.971 Y36.906 E0.06
G1 X54.361 Y36.61 E0.08443
G1 X54.787 Y36.337 E0.10967
G1 X55.39 Y36.09 E0.14218
G1 X55.942 Y35.927 E0.1709
G1 X56.436 Y35.823 E0.19608
G1 X56.848 Y35.796 E0.21668
G1 X143.254 Y35.808 E4.52749
G1 X143.758 Y35.848 E4.55272
G1 X144.294 Y35.982 E4.58028
G1 X144.754 Y36.14 E4.60455
G1 X145.217 Y36.341 E4.62973
G1 X145.643 Y36.613 E4.65495
G1 X145.842 Y36.776 E4.66778
G1 X146.372 Y37.248 E4.70319
G1 X146.722 Y37.613 E4.72842
G1 X147.005 Y38.02 E4.75315
G1 X147.131 Y38.235 E4.76558
G1 X147.351 Y38.69 E4.79079
G1 X147.478 Y39.091 E4.81178
G1 X147.618 Y39.662 E4.84111
G1 X147.699 Y40.161 E4.86633
G1 X147.71 Y40.424 E4.87946
G1 X147.725 Y216.285 E13.6532
G1 X147.722 Y216.422 E13.66004
G1 X147.652 Y218.052 E13.74144
G1 X147.591 Y218.554 E13.76667
G1 X147.451 Y219.04 E13.7919
G1 X147.307 Y219.366 E13.80968
G1 X147.045 Y219.881 E13.83851
G1 X146.781 Y220.312 E13.86372
G1 X146.383 Y220.763 E13.89373
G1 X146.041 Y221.084 E13.91713
G1 X145.646 Y221.4 E13.94237
G1 X145.045 Y221.72 E13.97634
G1 X144.443 Y221.962 E14.00871
G1 X143.96 Y222.113 E14.03396
G1 X143.249 Y222.193 E14.06965
G1 X56.773 Y222.195 E18.38396
G1 X56.269 Y222.155 E18.40918
G1 X55.782 Y222.038 E18.43417
G1 X55.3 Y221.881 E18.45946
G1 X54.833 Y221.687 E18.48469
G1 X54.301 Y221.344 E18.51627
G1 X53.874 Y221.005 E18.54347
G1 X53.504 Y220.661 E18.56867
G1 X53.193 Y220.262 E18.59391
G1 X53.055 Y220.033 E18.60725
G1 X52.735 Y219.447 E18.64056
G1 X52.529 Y218.985 E18.6658
G1 X52.381 Y218.396 E18.6961
G1 X52.326 Y218.036 E18.71427
G1 X52.289 Y217.553 E18.73843
G1 X52.28 Y41.05 E27.5442
G1 X52.292 Y40.774 E27.55799
G1 X52.382 Y39.733 E27.61012
G1 X52.465 Y39.235 E27.6353
G1 X52.626 Y38.755 E27.66056
G1 X52.834 Y38.35 E27.68328
G1 X53.17 Y37.796 E27.7156
G1 F1500 E21.2156
;MESH:custom_Maroney_Orange.stl
G0 F822.9 X54.809 Y41.765
G0 X56.094 Y41.776
G0 X56.18 Y44.239
G0 X56.08 Y44.239
;TYPE:WALL-INNER
G1 F1500 E27.7156
G1 F480 X56.074 Y41.776 E27.83848
G1 X56.083 Y40.395 E27.90738
G1 X56.115 Y40.241 E27.91523
G1 X56.167 Y40.104 E27.92254
G1 X56.239 Y39.979 E27.92974
G1 X56.333 Y39.864 E27.93715
G1 X56.451 Y39.76 E27.94499
G1 X56.57 Y39.684 E27.95204
G1 X56.705 Y39.626 E27.95937
G1 X56.852 Y39.59 E27.96692
G1 X57.025 Y39.576 E27.97558
G1 X142.979 Y39.577 E32.26384
G1 X143.148 Y39.59 E32.2723
G1 X143.295 Y39.626 E32.27985
G1 X143.43 Y39.684 E32.28718
G1 X143.549 Y39.759 E32.2942
G1 X143.668 Y39.865 E32.30215
G1 X143.761 Y39.978 E32.30945
G1 X143.833 Y40.103 E32.31665
G1 X143.885 Y40.241 E32.324
G1 X143.917 Y40.396 E32.3319
G1 X143.924 Y40.512 E32.3377
G1 X143.923 Y126.523 E36.6288
G1 X143.903 Y126.688 E36.63709
G1 X143.862 Y126.825 E36.64423
G1 X143.797 Y126.963 E36.65184
G1 X143.715 Y127.083 E36.65909
G1 X143.614 Y127.188 E36.66636
G1 X143.49 Y127.282 E36.67412
G1 X143.365 Y127.347 E36.68115
G1 X143.22 Y127.395 E36.68877
G1 X143.066 Y127.42 E36.69656
G1 X56.926 Y127.419 E40.9941
G1 X56.78 Y127.395 E41.00148
G1 X56.635 Y127.347 E41.0091
G1 X56.51 Y127.282 E41.01613
G1 X56.386 Y127.188 E41.02389
G1 X56.285 Y127.083 E41.03116
G1 X56.203 Y126.963 E41.03841
G1 X56.138 Y126.825 E41.04602
G1 X56.097 Y126.688 E41.05316
G1 X56.077 Y126.523 E41.06145
G1 X56.08 Y44.239 E45.16661
G0 F822.9 X56.18 Y44.239
G0 X63.527 Y40.817
G0 X63.597 Y40.887
G1 F480 X63.597 Y69.113 E46.57481
G1 X67.823 Y69.113 E46.78565
G1 X67.823 Y40.887 E48.19385
G1 X63.597 Y40.887 E48.40469
G0 F822.9 X63.527 Y40.817
G0 X71.147 Y40.817
G0 X71.217 Y40.887
G1 F480 X71.217 Y69.113 E49.81289
G1 X75.443 Y69.113 E50.02372
G1 X75.443 Y40.887 E51.43192
G1 X71.217 Y40.887 E51.64276
G0 F822.9 X71.147 Y40.817
G0 X78.767 Y40.817
G0 X78.837 Y40.887
G1 F480 X78.837 Y69.113 E53.05096
G1 X83.063 Y69.113 E53.2618
G1 X83.063 Y40.887 E54.67
G1 X78.837 Y40.887 E54.88083
G0 F822.9 X78.767 Y40.817
G0 X86.387 Y40.817
G0 X86.457 Y40.887
G1 F480 X86.457 Y69.113 E56.28904
G1 X90.683 Y69.113 E56.49987
G1 X90.683 Y40.887 E57.90807
G1 X86.457 Y40.887 E58.11891
G0 F822.9 X86.387 Y40.817
G0 X94.007 Y40.817
G0 X94.077 Y40.887
G1 F480 X94.077 Y69.113 E59.52711
G1 X98.303 Y69.113 E59.73794
G1 X98.303 Y40.887 E61.14615
G1 X94.077 Y40.887 E61.35698
G0 F822.9 X94.007 Y40.817
G0 X101.627 Y40.817
G0 X101.697 Y40.887
G1 F480 X101.697 Y69.113 E62.76518
G1 X105.923 Y69.113 E62.97602
G1 X105.923 Y40.887 E64.38422
G1 X101.697 Y40.887 E64.59506
G0 F822.9 X101.627 Y40.817
G0 X109.247 Y40.817
G0 X109.317 Y40.887
G1 F480 X109.317 Y69.113 E66.00326
G1 X113.543 Y69.113 E66.21409
G1 X113.543 Y40.887 E67.62229
G1 X109.317 Y40.887 E67.83313
G0 F822.9 X109.247 Y40.817
G0 X116.867 Y40.817
G0 X116.937 Y40.887
G1 F480 X116.937 Y69.113 E69.24133
G1 X121.163 Y69.113 E69.45217
G1 X121.163 Y40.887 E70.86037
G1 X116.937 Y40.887 E71.0712
G0 F822.9 X116.867 Y40.817
G0 X124.487 Y40.817
G0 X124.557 Y40.887
G1 F480 X124.557 Y69.113 E72.4794
G1 X128.783 Y69.113 E72.69024
G1 X128.783 Y40.887 E74.09844
G1 X124.557 Y40.887 E74.30928
G0 F822.9 X124.487 Y40.817
G0 X132.107 Y40.817
G0 X132.177 Y40.887
G1 F480 X132.177 Y69.113 E75.71748
G1 X136.403 Y69.113 E75.92831
G1 X136.403 Y40.887 E77.33651
G1 X132.177 Y40.887 E77.54735
G0 F822.9 X132.107 Y40.817
G0 X136.431 Y40.859
G0 X138.142 Y72.385
G0 X138.072 Y72.455
G1 F480 X137.872 Y72.455 E77.55733
G1 X61.583 Y72.456 E81.3634
G1 X61.582 Y124.345 E83.95215
G1 X61.582 Y124.545 E83.96213
G1 X61.782 Y124.545 E83.96859
G1 X138.072 Y124.545 E87.77472
G1 X138.072 Y72.655 E90.36352
G1 X138.072 Y72.455 E90.36998
G0 F822.9 X138.142 Y72.385
G0 X130.37 Y72.427
G0 X130.157 Y72.855
G0 X130.072 Y72.855
;TYPE:WALL-OUTER
G1 F480 X122.783 Y72.856 E90.73363
G1 X122.782 Y124.145 E93.29245
G1 X130.072 Y124.145 E93.65615
G1 X130.072 Y72.855 E96.21502
G0 F822.9 X129.872 Y72.855
G0 X130.157 Y72.855
G0 X130.085 Y72.427
G0 X115.169 Y72.427
G0 X115.097 Y72.855
G0 X115.182 Y72.855
G1 F480 X115.182 Y124.145 E98.77389
G1 X122.472 Y124.145 E99.13758
G1 X122.472 Y72.855 E101.12391
G1 X115.182 Y72.855 E101.48761
G0 F822.9 X115.182 Y73.055
G0 X114.872 Y72.855
G1 F480 X107.583 Y72.856 E101.85126
G1 X107.582 Y124.145 E104.41008
G1 X114.872 Y124.145 E104.77378
G1 X114.872 Y72.855 E106.7569
G0 F822.9 X114.672 Y72.855
G0 X114.957 Y72.855
G0 X114.885 Y72.427
G0 X107.57 Y72.427
G0 X107.357 Y72.855
G0 X107.272 Y72.855
G1 F480 X99.983 Y72.856 E107.12055
G1 X99.982 Y124.145 E109.67937
G1 X107.272 Y124.145 E110.04307
G1 X107.272 Y72.855 E112.0294
G0 F822.9 X107.072 Y72.855
G0 X107.357 Y72.855
G0 X107.285 Y72.427
G0 X99.97 Y72.427
G0 X99.757 Y72.855
G0 X99.672 Y72.855
G1 F480 X92.383 Y72.856 E112.39305
G1 X92.382 Y124.145 E114.95187
G1 X99.672 Y124.145 E115.31557
G1 X99.672 Y72.855 E117.30189
G0 F822.9 X99.472 Y72.855
G0 X99.757 Y72.855
G0 X99.685 Y72.428
G0 X92.37 Y72.428
G0 X92.157 Y72.855
G0 X92.072 Y72.855
G1 F480 X84.783 Y72.856 E117.66554
G1 X84.782 Y124.145 E120.22436
G1 X92.072 Y124.145 E120.58806
G1 X92.072 Y72.855 E122.57439
G0 F822.9 X91.872 Y72.855
G0 X92.157 Y72.855
G0 X92.085 Y72.428
G0 X84.77 Y72.428
G0 X84.557 Y72.855
G0 X84.472 Y72.855
G1 F480 X77.183 Y72.856 E122.93804
G1 X77.182 Y124.145 E125.49686
G1 X84.472 Y124.145 E125.86056
G1 X84.472 Y72.855 E127.84688
G0 F822.9 X84.272 Y72.855
G0 X84.557 Y72.855
G0 X84.485 Y72.428
G0 X77.17 Y72.428
G0 X76.957 Y72.855
G0 X76.872 Y72.855
G1 F480 X69.583 Y72.856 E128.21053
G1 X69.582 Y124.145 E130.76935
G1 X76.872 Y124.145 E131.13305
G1 X76.872 Y72.855 E133.11938
G0 F822.9 X76.672 Y72.855
G0 X76.957 Y72.855
G0 X78.809 Y40.859
G0 X79.237 Y40.787
G0 X79.237 Y41.287
G1 F480 X79.237 Y68.713 E134.48767
G1 X82.663 Y68.713 E134.65859
G1 X82.663 Y41.287 E136.02688
G1 X79.237 Y41.287 E136.1978
G0 F822.9 X79.237 Y41.487
G0 X78.737 Y41.487
G0 X78.809 Y40.859
G0 X86.857 Y40.787
G0 X86.857 Y41.287
G1 F480 X86.857 Y68.713 E137.56609
G1 X90.283 Y68.713 E137.73702
G1 X90.283 Y41.287 E139.1053
G1 X86.857 Y41.287 E139.27623
G0 F822.9 X86.857 Y41.487
G0 X86.357 Y41.487
G0 X86.429 Y40.859
G0 X94.477 Y40.787
G0 X94.477 Y41.287
G1 F480 X94.477 Y68.713 E140.64452
G1 X97.903 Y68.713 E140.81544
G1 X97.903 Y41.287 E142.18373
G1 X94.477 Y41.287 E142.35465
G0 F822.9 X94.477 Y41.487
G0 X93.977 Y41.487
G0 X94.049 Y40.859
G0 X102.097 Y40.787
G0 X102.097 Y41.287
G1 F480 X102.097 Y68.713 E143.72294
G1 X105.523 Y68.713 E143.89387
G1 X105.523 Y41.287 E145.26216
G1 X102.097 Y41.287 E145.43308
G0 F822.9 X102.097 Y41.487
G0 X101.597 Y41.487
G0 X101.669 Y40.859
G0 X109.717 Y40.787
G0 X109.717 Y41.287
G1 F480 X109.717 Y68.713 E146.80137
G1 X113.143 Y68.713 E146.97229
G1 X113.143 Y41.287 E148.34058
G1 X109.717 Y41.287 E148.5115
G0 F822.9 X109.717 Y41.487
G0 X109.217 Y41.487
G0 X109.289 Y40.859
G0 X117.337 Y40.787
G0 X117.337 Y41.287
G1 F480 X117.337 Y68.713 E149.87979
G1 X120.763 Y68.713 E150.05072
G1 X120.763 Y41.287 E151.41901
G1 X117.337 Y41.287 E151.58993
G0 F822.9 X117.337 Y41.487
G0 X116.837 Y41.487
G0 X116.909 Y40.859
G0 X124.957 Y40.787
G0 X124.957 Y41.287
G1 F480 X124.957 Y68.713 E152.95822
G1 X128.383 Y68.713 E153.12914
G1 X128.383 Y41.287 E154.49743
G1 X124.957 Y41.287 E154.66835
G0 F822.9 X124.957 Y41.487
G0 X124.457 Y41.487
G0 X124.529 Y40.859
G0 X132.577 Y40.787
G0 X132.577 Y41.287
G1 F480 X132.577 Y68.713 E156.03664
G1 X136.003 Y68.713 E156.20757
G1 X136.003 Y41.287 E157.57586
G1 X132.577 Y41.287 E157.74678
G0 F822.9 X132.577 Y41.487
G0 X132.077 Y41.487
G0 X128.811 Y40.859
G0 X71.617 Y40.787
G0 X71.617 Y41.287
G1 F480 X71.617 Y68.713 E159.11507
G1 X75.043 Y68.713 E159.28599
G1 X75.043 Y41.287 E160.65428
G1 X71.617 Y41.287 E160.8252
G0 F822.9 X71.617 Y41.487
G0 X71.117 Y41.487
G0 X67.851 Y40.859
G0 X63.997 Y40.787
G0 X63.997 Y41.287
G1 F480 X63.997 Y68.713 E162.19349
G1 X67.423 Y68.713 E162.36442
G1 X67.423 Y41.287 E163.73271
G1 X63.997 Y41.287 E163.90363
G0 F822.9 X63.997 Y41.487
G0 X63.497 Y41.487
G0 X56.179 Y44.24
G0 X55.68 Y44.239
G1 F480 X55.674 Y41.774 E164.02661
G1 X55.679 Y40.478 E164.09127
G1 X55.686 Y40.339 E164.09821
G1 X55.729 Y40.132 E164.10876
G1 X55.805 Y39.931 E164.11948
G1 X55.908 Y39.751 E164.12983
G1 X56.045 Y39.584 E164.1406
G1 X56.207 Y39.441 E164.15138
G1 X56.383 Y39.329 E164.16179
G1 X56.583 Y39.244 E164.17263
G1 X56.787 Y39.194 E164.18311
G1 X57.004 Y39.176 E164.19397
G1 X142.998 Y39.177 E168.48423
G1 X143.213 Y39.194 E168.49499
G1 X143.417 Y39.244 E168.50547
G1 X143.617 Y39.329 E168.51631
G1 X143.793 Y39.441 E168.52672
G1 X143.957 Y39.586 E168.53764
G1 X144.089 Y39.748 E168.54807
G1 X144.195 Y39.931 E168.55862
G1 X144.271 Y40.132 E168.56934
G1 X144.314 Y40.339 E168.57989
G1 X144.324 Y40.512 E168.58853
G1 X144.323 Y126.546 E172.88079
G1 X144.296 Y126.768 E172.89194
G1 X144.236 Y126.97 E172.90246
G1 X144.146 Y127.162 E172.91304
G1 X144.026 Y127.336 E172.92358
G1 X143.877 Y127.491 E172.93431
G1 X143.708 Y127.619 E172.94488
G1 X143.521 Y127.717 E172.95542
G1 X143.314 Y127.785 E172.96629
G1 X143.107 Y127.819 E172.97675
G1 X142.992 Y127.824 E172.9825
G1 X56.891 Y127.819 E177.27809
G1 X56.686 Y127.785 E177.28846
G1 X56.479 Y127.717 E177.29933
G1 X56.292 Y127.619 E177.30986
G1 X56.123 Y127.491 E177.32044
G1 X55.974 Y127.336 E177.33117
G1 X55.854 Y127.162 E177.34171
G1 X55.764 Y126.97 E177.35229
G1 X55.704 Y126.768 E177.3628
G1 X55.677 Y126.546 E177.37396
G1 X55.68 Y44.239 E181.48027
G0 F822.9 X55.68 Y44.039
G0 X56.18 Y44.039
G0 X61.483 Y124.144
G0 X61.982 Y124.145
G1 F480 X62.182 Y124.145 E181.49025
G1 X69.272 Y124.145 E181.84397
G1 X69.272 Y73.055 E184.39286
G1 X69.272 Y72.855 E184.40284
G1 X69.072 Y72.855 E184.4093
G1 X61.983 Y72.856 E184.76297
G1 X61.982 Y123.945 E187.31181
G1 X61.982 Y124.145 E187.31828
G0 F822.9 X62.182 Y124.145
G0 X62.182 Y124.645
G0 X130.085 Y124.573
G0 X130.298 Y124.145
G0 X130.382 Y124.145
G1 F480 X130.582 Y124.145 E187.32825
G1 X137.672 Y124.145 E187.68197
G1 X137.672 Y73.055 E190.23087
G1 X137.672 Y72.855 E190.24084
G1 X137.472 Y72.855 E190.2473
G1 X130.383 Y72.856 E190.60098
G1 X130.382 Y123.945 E193.14982
G1 X130.382 Y124.145 E193.15628
G0 F822.9 X130.582 Y124.145
G0 X130.298 Y124.144
G0 X130.369 Y124.573
G0 X138.462 Y124.935
;TYPE:SKIN
G1 F480 X138.462 Y72.065 E195.79397
G1 X61.193 Y72.066 E199.64894
G1 X61.192 Y124.935 E202.28658
G1 X138.462 Y124.935 E206.1416
G0 F822.9 X143.034 Y127.03
G1 F480 X56.953 Y127.029 E210.4362
G1 X56.883 Y127.017 E210.43974
G1 X56.78 Y126.984 E210.44514
G1 X56.723 Y126.954 E210.44835
G1 X56.649 Y126.898 E210.45298
G1 X56.587 Y126.835 E210.45739
G1 X56.543 Y126.769 E210.46135
G1 X56.503 Y126.685 E210.46599
G1 X56.481 Y126.612 E210.46979
G1 X56.467 Y126.492 E210.47582
G1 X56.47 Y44.239 E214.57944
G1 X56.464 Y41.778 E214.70222
G1 X56.473 Y40.436 E214.76917
G1 X56.491 Y40.348 E214.77365
G1 X56.52 Y40.272 E214.77771
G1 X56.558 Y40.207 E214.78147
G1 X56.62 Y40.131 E214.78636
G1 X56.679 Y40.078 E214.79032
G1 X56.758 Y40.028 E214.79498
G1 X56.829 Y39.998 E214.79883
G1 X56.92 Y39.975 E214.80351
G1 X57.033 Y39.966 E214.80917
G1 X142.975 Y39.967 E219.09683
G1 X143.08 Y39.975 E219.10209
G1 X143.169 Y39.997 E219.10666
G1 X143.25 Y40.031 E219.11104
G1 X143.313 Y40.071 E219.11476
G1 X143.391 Y40.14 E219.11996
G1 X143.438 Y40.198 E219.12368
G1 X143.478 Y40.267 E219.12766
G1 X143.509 Y40.351 E219.13213
G1 X143.529 Y40.443 E219.13683
G1 X143.534 Y40.535 E219.14142
G1 X143.533 Y126.492 E223.42984
G1 X143.519 Y126.612 E223.43586
G1 X143.497 Y126.685 E223.43967
G1 X143.457 Y126.769 E223.44431
G1 X143.413 Y126.835 E223.44827
G1 X143.351 Y126.898 E223.45268
G1 X143.277 Y126.954 E223.45731
G1 X143.221 Y126.984 E223.46048
G1 X143.124 Y127.015 E223.46556
G1 X143.034 Y127.03 E223.47011
G0 F822.9 X138.1 Y72.427
G0 X131.787 Y69.503
G1 F480 X136.793 Y69.503 E223.71986
G1 X136.793 Y40.497 E225.16697
G1 X131.787 Y40.497 E225.41672
G1 X131.787 Y69.503 E226.86384
G0 F822.9 X129.173 Y69.503
G1 F480 X129.173 Y40.497 E228.31096
G1 X124.167 Y40.497 E228.56071
G1 X124.167 Y69.503 E230.00782
G1 X129.173 Y69.503 E230.25757
G0 F822.9 X121.553 Y69.503
G1 F480 X121.553 Y40.497 E231.70469
G1 X116.547 Y40.497 E231.95444
G1 X116.547 Y69.503 E233.40155
G1 X121.553 Y69.503 E233.6513
G0 F822.9 X113.933 Y69.503
G1 F480 X113.933 Y40.497 E235.09842
G1 X108.927 Y40.497 E235.34817
G1 X108.927 Y69.503 E236.79528
G1 X113.933 Y69.503 E237.04503
G0 F822.9 X106.313 Y69.503
G1 F480 X106.313 Y40.497 E238.49215
G1 X101.307 Y40.497 E238.7419
G1 X101.307 Y69.503 E240.18901
G1 X106.313 Y69.503 E240.43876
G0 F822.9 X98.693 Y69.503
G1 F480 X98.693 Y40.497 E241.88588
G1 X93.687 Y40.497 E242.13563
G1 X93.687 Y69.503 E243.58275
G1 X98.693 Y69.503 E243.8325
G0 F822.9 X91.073 Y69.503
G1 F480 X91.073 Y40.497 E245.27961
G1 X86.067 Y40.497 E245.52936
G1 X86.067 Y69.503 E246.97648
G1 X91.073 Y69.503 E247.22623
G0 F822.9 X83.453 Y69.503
G1 F480 X83.453 Y40.497 E248.67334
G1 X78.447 Y40.497 E248.92309
G1 X78.447 Y69.503 E250.37021
G1 X83.453 Y69.503 E250.61996
G0 F822.9 X75.833 Y69.503
G1 F480 X75.833 Y40.497 E252.06707
G1 X70.827 Y40.497 E252.31682
G1 X70.827 Y69.503 E253.76394
G1 X75.833 Y69.503 E254.01369
G0 F822.9 X68.213 Y69.503
G1 F480 X68.213 Y40.497 E255.4608
G1 X63.207 Y40.497 E255.71055
G1 X63.207 Y69.503 E257.15767
G1 X68.213 Y69.503 E257.40742
G0 F822.9 X61.555 Y72.428
G0 X57.269 Y126.848
G1 F480 X56.647 Y126.226 E257.45131
G0 F822.9 X56.647 Y125.66
G1 F480 X57.834 Y126.848 E257.53509
G0 F822.9 X58.4 Y126.848
G1 F480 X56.647 Y125.094 E257.65881
G0 F822.9 X56.647 Y124.529
G1 F480 X58.966 Y126.848 E257.82243
G0 F822.9 X59.532 Y126.848
