;FLAVOR:Marlin
;TIME:3841
;Filament used: 3.11324m
;Layer height: 0.2
;Generated with Cura_SteamEngine 3.6.0
M140 S65
M105
M190 S65
M104 S215
M105
M109 S215
M82 ;absolute extrusion mode
G21 ;metric values
G90 ;absolute positioning
M82 ;set extruder to absolute mode
M107 ;start with the fan off
G28 X0 Y0 ;move X/Y to min endstops
G28 Z0 ;move Z to min endstops
M117 Auto-level...
G29 L1  ;load autolevel
G29 A   ;enable UBL
M117 Preparing...
G1 Z15.0 F9000 ;move the platform down 15mm
G92 E0 ;zero the extruded length
G1 F200 E3 ;extrude 3mm of feed stock
G92 E0 ;zero the extruded length again
G1 F9000
M117 Printing...
G92 E0
G1 F1500 E-6.5
;LAYER_COUNT:36
;LAYER:0
M107
G0 F822.9 X55.153 Y87.933 Z0.3
;TYPE:SKIRT
G1 F1500 E0
G1 F480 X55.596 Y87.69 E0.02521
G1 X56.065 Y87.521 E0.05008
G1 X56.459 Y87.413 E0.07046
G1 X56.956 Y87.318 E0.09571
G1 X57.305 Y87.299 E0.11314
G1 X143.479 Y87.286 E4.41238
G1 X144.034 Y87.335 E4.44018
G1 X144.59 Y87.433 E4.46834
G1 X145.08 Y87.559 E4.49359
G1 X145.63 Y87.81 E4.52375
G1 X146.056 Y88.055 E4.54827
G1 X146.473 Y88.341 E4.57349
G1 X146.84 Y88.689 E4.59873
G1 X147.026 Y88.916 E4.61337
G1 X147.46 Y89.498 E4.64959
G1 X147.73 Y89.926 E4.67483
G1 X147.928 Y90.391 E4.70005
G1 X148.016 Y90.704 E4.71627
G1 X148.131 Y91.212 E4.74225
G1 X148.21 Y91.92 E4.7778
G1 X148.185 Y178.271 E9.08587
G1 X148.145 Y178.775 E9.11109
G1 X147.966 Y179.433 E9.14511
G1 X147.749 Y179.989 E9.17489
G1 X147.529 Y180.444 E9.2001
G1 X147.155 Y180.957 E9.23177
G1 X146.847 Y181.302 E9.25485
G1 X146.482 Y181.651 E9.28004
G1 X145.851 Y182.053 E9.31737
G1 X145.211 Y182.362 E9.35282
G1 X144.74 Y182.545 E9.37803
G1 X144.246 Y182.652 E9.40325
G1 X143.821 Y182.68 E9.4245
G1 X57.318 Y182.703 E13.74015
G1 X56.814 Y182.663 E13.76538
G1 X56.362 Y182.557 E13.78854
G1 X55.841 Y182.394 E13.81577
G1 X55.371 Y182.205 E13.84105
G1 X54.938 Y181.945 E13.86625
G1 X54.738 Y181.79 E13.87887
G1 X54.244 Y181.375 E13.91106
G1 X53.883 Y181.02 E13.93632
G1 X53.584 Y180.613 E13.96151
G1 X53.379 Y180.227 E13.98332
G1 X53.089 Y179.576 E14.01887
G1 X52.92 Y179.1 E14.04407
G1 X52.829 Y178.602 E14.06933
G1 X52.812 Y178.275 E14.08567
G1 X52.787 Y91.995 E18.39019
G1 X52.83 Y91.469 E18.41652
G1 X52.91 Y90.988 E18.44085
G1 X53.032 Y90.497 E18.46609
G1 X53.23 Y90.032 E18.49131
G1 X53.362 Y89.803 E18.50449
G1 X53.742 Y89.202 E18.53997
G1 X54.045 Y88.797 E18.5652
G1 X54.408 Y88.445 E18.59043
G1 X54.689 Y88.238 E18.60784
G1 X55.153 Y87.933 E18.63554
G1 F1500 E12.13554
;MESH:custom_George_Gray.stl
G0 F822.9 X56.06 Y90.357
G0 X56.877 Y91.346
G0 X57.817 Y98.527
G0 X57.887 Y98.597
;TYPE:WALL-INNER
G1 F1500 E18.63554
G1 F480 X57.887 Y102.823 E18.84638
G1 X86.113 Y102.823 E20.25458
G1 X86.113 Y98.597 E20.46542
G1 X57.887 Y98.597 E21.87362
G0 F822.9 X57.817 Y98.527
G0 X57.817 Y106.147
G0 X57.887 Y106.217
G1 F480 X57.887 Y110.443 E22.08445
G1 X86.113 Y110.443 E23.49265
G1 X86.113 Y106.217 E23.70349
G1 X57.887 Y106.217 E25.11169
G0 F822.9 X57.817 Y106.147
G0 X57.817 Y113.767
G0 X57.887 Y113.837
G1 F480 X57.887 Y118.063 E25.32253
G1 X86.113 Y118.063 E26.73073
G1 X86.113 Y113.837 E26.94156
G1 X57.887 Y113.837 E28.34976
G0 F822.9 X57.817 Y113.767
G0 X57.817 Y121.387
G0 X57.887 Y121.457
G1 F480 X57.887 Y125.683 E28.5606
G1 X86.113 Y125.683 E29.9688
G1 X86.113 Y121.457 E30.17964
G1 X57.887 Y121.457 E31.58784
G0 F822.9 X57.817 Y121.387
G0 X57.817 Y129.007
G0 X57.887 Y129.077
G1 F480 X57.887 Y133.303 E31.79867
G1 X86.113 Y133.303 E33.20687
G1 X86.113 Y129.077 E33.41771
G1 X57.887 Y129.077 E34.82591
G0 F822.9 X57.817 Y129.007
G0 X57.817 Y136.627
G0 X57.887 Y136.697
G1 F480 X57.887 Y140.923 E35.03675
G1 X86.113 Y140.923 E36.44495
G1 X86.113 Y136.697 E36.65578
G1 X57.887 Y136.697 E38.06399
G0 F822.9 X57.817 Y136.627
G0 X57.817 Y144.247
G0 X57.887 Y144.317
G1 F480 X57.887 Y148.543 E38.27482
G1 X86.113 Y148.543 E39.68302
G1 X86.113 Y144.317 E39.89386
G1 X57.887 Y144.317 E41.30206
G0 F822.9 X57.817 Y144.247
G0 X57.817 Y151.867
G0 X57.887 Y151.937
G1 F480 X57.887 Y156.163 E41.51289
G1 X86.113 Y156.163 E42.9211
G1 X86.113 Y151.937 E43.13193
G1 X57.887 Y151.937 E44.54013
G0 F822.9 X57.817 Y151.867
G0 X57.817 Y159.487
G0 X57.887 Y159.557
G1 F480 X57.887 Y163.783 E44.75097
G1 X86.113 Y163.783 E46.15917
G1 X86.113 Y159.557 E46.37001
G1 X57.887 Y159.557 E47.77821
G0 F822.9 X57.817 Y159.487
G0 X57.817 Y167.107
G0 X57.887 Y167.177
G1 F480 X57.887 Y171.403 E47.98904
G1 X86.113 Y171.403 E49.39724
G1 X86.113 Y167.177 E49.60808
G1 X57.887 Y167.177 E51.01628
G0 F822.9 X57.817 Y167.107
G0 X57.859 Y171.431
G0 X61.239 Y178.82
G0 X61.239 Y178.92
G1 F480 X58.775 Y178.926 E51.13921
G1 X57.395 Y178.917 E51.20806
G1 X57.241 Y178.885 E51.21591
G1 X57.104 Y178.833 E51.22322
G1 X56.979 Y178.761 E51.23041
G1 X56.864 Y178.667 E51.23782
G1 X56.76 Y178.549 E51.24567
G1 X56.684 Y178.43 E51.25272
G1 X56.626 Y178.295 E51.26005
G1 X56.59 Y178.148 E51.2676
G1 X56.576 Y177.978 E51.27611
G1 X56.577 Y92.019 E55.56462
G1 X56.59 Y91.852 E55.57298
G1 X56.626 Y91.705 E55.58053
G1 X56.684 Y91.57 E55.58786
G1 X56.76 Y91.451 E55.5949
G1 X56.864 Y91.333 E55.60275
G1 X56.979 Y91.239 E55.61016
G1 X57.104 Y91.167 E55.61736
G1 X57.241 Y91.115 E55.62467
G1 X57.396 Y91.083 E55.63256
G1 X57.518 Y91.076 E55.63866
G1 X143.523 Y91.077 E59.92947
G1 X143.687 Y91.097 E59.93771
G1 X143.823 Y91.137 E59.94478
G1 X143.964 Y91.203 E59.95255
G1 X144.085 Y91.287 E59.9599
G1 X144.188 Y91.386 E59.96702
G1 X144.282 Y91.51 E59.97479
G1 X144.347 Y91.635 E59.98182
G1 X144.395 Y91.78 E59.98944
G1 X144.42 Y91.934 E59.99722
G1 X144.419 Y178.074 E64.29476
G1 X144.395 Y178.22 E64.30214
G1 X144.347 Y178.365 E64.30976
G1 X144.282 Y178.49 E64.31679
G1 X144.188 Y178.614 E64.32456
G1 X144.085 Y178.713 E64.33168
G1 X143.964 Y178.797 E64.33903
G1 X143.823 Y178.863 E64.3468
G1 X143.687 Y178.903 E64.35387
G1 X143.523 Y178.923 E64.36211
G1 X61.239 Y178.92 E68.46728
G0 F822.9 X61.239 Y178.82
G0 X57.859 Y171.431
G0 X57.859 Y151.909
G0 X86.141 Y148.571
G0 X89.385 Y96.858
G0 X89.455 Y96.928
G1 F480 X89.455 Y97.128 E68.47726
G1 X89.456 Y173.417 E72.28333
G1 X141.345 Y173.418 E74.87208
G1 X141.545 Y173.418 E74.88206
G1 X141.545 Y173.218 E74.88852
G1 X141.545 Y96.928 E78.69465
G1 X89.655 Y96.928 E81.28345
G1 X89.455 Y96.928 E81.28991
G0 F822.9 X89.855 Y97.328
;TYPE:WALL-OUTER
G1 F480 X89.855 Y97.528 E81.29989
G1 X89.856 Y104.617 E81.65356
G1 X140.945 Y104.618 E84.2024
G1 X141.145 Y104.618 E84.21238
G1 X141.145 Y104.418 E84.21884
G1 X141.145 Y97.328 E84.57256
G1 X90.055 Y97.328 E87.12145
G1 X89.855 Y97.328 E87.12791
G0 F822.9 X89.855 Y97.528
G0 X89.355 Y97.528
G0 X89.427 Y104.63
G0 X89.855 Y104.843
G0 X89.855 Y104.928
G1 F480 X89.856 Y112.217 E87.49156
G1 X141.145 Y112.218 E90.05038
G1 X141.145 Y104.928 E90.41408
G1 X140.944 Y104.928 E90.42298
G1 X89.855 Y104.928 E92.68827
G0 F822.9 X89.855 Y105.128
G0 X89.855 Y104.843
G0 X89.427 Y104.915
G0 X89.427 Y112.23
G0 X89.855 Y112.443
G0 X89.855 Y112.528
G1 F480 X89.855 Y119.818 E93.05197
G1 X141.145 Y119.818 E95.61084
G1 X141.145 Y112.528 E95.97454
G1 X89.855 Y112.528 E97.96087
G0 F822.9 X89.855 Y112.728
G0 X89.855 Y112.443
G0 X89.427 Y112.515
G0 X89.427 Y119.831
G0 X89.855 Y120.043
G0 X89.855 Y120.128
G1 F480 X89.856 Y127.417 E98.32451
G1 X141.145 Y127.418 E100.88333
G1 X141.145 Y120.128 E101.24703
G1 X89.855 Y120.128 E103.23016
G0 F822.9 X89.855 Y120.328
G0 X89.855 Y120.043
G0 X89.427 Y120.115
G0 X89.427 Y127.43
G0 X89.855 Y127.643
G0 X89.855 Y127.728
G1 F480 X89.856 Y135.017 E103.59381
G1 X141.145 Y135.018 E106.15262
G1 X141.145 Y127.728 E106.51632
G1 X89.855 Y127.728 E108.50265
G0 F822.9 X89.855 Y127.928
G0 X89.855 Y127.643
G0 X89.427 Y127.715
G0 X89.427 Y135.03
G0 X89.855 Y135.243
G0 X89.855 Y135.328
G1 F480 X89.856 Y142.617 E108.8663
G1 X141.145 Y142.618 E111.42512
G1 X141.145 Y135.328 E111.78882
G1 X89.855 Y135.328 E113.77515
G0 F822.9 X89.855 Y135.528
G0 X89.855 Y135.243
G0 X89.428 Y135.315
G0 X89.428 Y142.63
G0 X89.855 Y142.843
G0 X89.855 Y142.928
G1 F480 X89.856 Y150.217 E114.1388
G1 X141.145 Y150.218 E116.69761
G1 X141.145 Y142.928 E117.06131
G1 X89.855 Y142.928 E119.04764
G0 F822.9 X89.855 Y143.128
G0 X89.855 Y142.843
G0 X89.428 Y142.915
G0 X89.428 Y150.23
G0 X89.855 Y150.443
G0 X89.855 Y150.528
G1 F480 X89.856 Y157.817 E119.41129
G1 X141.145 Y157.818 E121.97011
G1 X141.145 Y150.528 E122.33381
G1 X89.855 Y150.528 E124.32014
G0 F822.9 X89.855 Y150.728
G0 X89.855 Y150.443
G0 X89.428 Y150.515
G0 X89.428 Y157.83
G0 X89.855 Y158.043
G0 X89.855 Y158.128
G1 F480 X89.856 Y165.417 E124.68379
G1 X141.145 Y165.418 E127.24261
G1 X141.145 Y158.128 E127.6063
G1 X89.855 Y158.128 E129.59263
G0 F822.9 X89.855 Y158.328
G0 X89.855 Y158.043
G0 X89.428 Y158.115
G0 X89.428 Y165.43
G0 X89.855 Y165.643
G0 X89.855 Y165.728
G1 F480 X89.855 Y165.928 E129.60261
G1 X89.856 Y173.017 E129.95628
G1 X140.945 Y173.018 E132.50512
G1 X141.145 Y173.018 E132.5151
G1 X141.145 Y172.818 E132.52156
G1 X141.145 Y165.728 E132.87528
G1 X90.055 Y165.728 E135.42417
G1 X89.855 Y165.728 E135.43063
G0 F822.9 X89.855 Y165.928
G0 X89.855 Y165.643
G0 X58.287 Y167.077
G0 X58.287 Y167.577
G1 F480 X58.287 Y171.003 E135.60156
G1 X85.713 Y171.003 E136.96985
G1 X85.713 Y167.577 E137.14077
G1 X58.287 Y167.577 E138.50906
G0 F822.9 X58.287 Y167.777
G0 X57.787 Y167.777
G0 X57.859 Y159.529
G0 X58.287 Y159.457
G0 X58.287 Y159.957
G1 F480 X58.287 Y163.383 E138.67998
G1 X85.713 Y163.383 E140.04827
G1 X85.713 Y159.957 E140.2192
G1 X58.287 Y159.957 E141.58748
G0 F822.9 X58.287 Y160.157
G0 X57.787 Y160.157
G0 X57.859 Y151.909
G0 X58.287 Y151.837
G0 X58.287 Y152.337
G1 F480 X58.287 Y155.763 E141.75841
G1 X85.713 Y155.763 E143.1267
G1 X85.713 Y152.337 E143.29762
G1 X58.287 Y152.337 E144.66591
G0 F822.9 X58.287 Y152.537
G0 X57.787 Y152.537
G0 X57.859 Y144.289
G0 X58.287 Y144.217
G0 X58.287 Y144.717
G1 F480 X58.287 Y148.143 E144.83683
G1 X85.713 Y148.143 E146.20512
G1 X85.713 Y144.717 E146.37605
G1 X58.287 Y144.717 E147.74433
G0 F822.9 X58.287 Y144.917
G0 X57.787 Y144.917
G0 X57.859 Y136.669
G0 X58.287 Y136.597
G0 X58.287 Y137.097
G1 F480 X58.287 Y140.523 E147.91526
G1 X85.713 Y140.523 E149.28355
G1 X85.713 Y137.097 E149.45447
G1 X58.287 Y137.097 E150.82276
G0 F822.9 X58.287 Y137.297
G0 X57.787 Y137.297
G0 X57.859 Y129.049
G0 X58.287 Y128.977
G0 X58.287 Y129.477
G1 F480 X58.287 Y132.903 E150.99368
G1 X85.713 Y132.903 E152.36197
G1 X85.713 Y129.477 E152.5329
G1 X58.287 Y129.477 E153.90118
G0 F822.9 X58.287 Y129.677
G0 X57.787 Y129.677
G0 X57.859 Y121.429
G0 X58.287 Y121.357
G0 X58.287 Y121.857
G1 F480 X58.287 Y125.283 E154.07211
G1 X85.713 Y125.283 E155.4404
G1 X85.713 Y121.857 E155.61132
G1 X58.287 Y121.857 E156.97961
G0 F822.9 X58.287 Y122.057
G0 X57.787 Y122.057
G0 X57.859 Y113.809
G0 X58.287 Y113.737
G0 X58.287 Y114.237
G1 F480 X58.287 Y117.663 E157.15053
G1 X85.713 Y117.663 E158.51882
G1 X85.713 Y114.237 E158.68975
G1 X58.287 Y114.237 E160.05803
G0 F822.9 X58.287 Y114.437
G0 X57.787 Y114.437
G0 X57.859 Y106.189
G0 X58.287 Y106.117
G0 X58.287 Y106.617
G1 F480 X58.287 Y110.043 E160.22896
G1 X85.713 Y110.043 E161.59725
G1 X85.713 Y106.617 E161.76817
G1 X58.287 Y106.617 E163.13646
G0 F822.9 X58.287 Y106.817
G0 X57.787 Y106.817
G0 X57.859 Y98.569
G0 X58.287 Y98.497
G0 X58.287 Y98.997
G1 F480 X58.287 Y102.423 E163.30738
G1 X85.713 Y102.423 E164.67567
G1 X85.713 Y98.997 E164.8466
G1 X58.287 Y98.997 E166.21488
G0 F822.9 X58.287 Y99.197
G0 X57.787 Y99.197
G0 X57.859 Y171.431
G0 X61.24 Y178.821
G0 X61.239 Y179.32
G1 F480 X58.774 Y179.326 E166.33786
G1 X57.478 Y179.321 E166.40252
G1 X57.339 Y179.314 E166.40947
G1 X57.132 Y179.271 E166.42001
G1 X56.931 Y179.195 E166.43073
G1 X56.751 Y179.092 E166.44108
G1 X56.584 Y178.955 E166.45186
G1 X56.441 Y178.793 E166.46264
G1 X56.329 Y178.617 E166.47305
G1 X56.244 Y178.417 E166.48389
G1 X56.194 Y178.213 E166.49437
G1 X56.176 Y178 E166.50503
G1 X56.177 Y92 E170.79559
G1 X56.194 Y91.787 E170.80625
G1 X56.244 Y91.583 E170.81673
G1 X56.329 Y91.383 E170.82757
G1 X56.441 Y91.207 E170.83798
G1 X56.584 Y91.045 E170.84876
G1 X56.751 Y90.908 E170.85953
G1 X56.931 Y90.805 E170.86988
G1 X57.132 Y90.729 E170.8806
G1 X57.339 Y90.686 E170.89115
G1 X57.512 Y90.676 E170.89979
G1 X143.546 Y90.677 E175.19205
G1 X143.768 Y90.704 E175.20321
G1 X143.967 Y90.762 E175.21355
G1 X144.164 Y90.855 E175.22442
G1 X144.336 Y90.974 E175.23485
G1 X144.491 Y91.123 E175.24558
G1 X144.619 Y91.292 E175.25615
G1 X144.717 Y91.479 E175.26669
G1 X144.785 Y91.686 E175.27756
G1 X144.819 Y91.893 E175.28802
G1 X144.824 Y92 E175.29337
G1 X144.819 Y178.109 E179.58936
G1 X144.785 Y178.314 E179.59973
G1 X144.717 Y178.521 E179.6106
G1 X144.619 Y178.708 E179.62113
G1 X144.491 Y178.877 E179.63171
G1 X144.336 Y179.026 E179.64244
G1 X144.164 Y179.145 E179.65287
G1 X143.967 Y179.238 E179.66374
G1 X143.768 Y179.296 E179.67408
G1 X143.546 Y179.323 E179.68524
G1 X61.239 Y179.32 E183.79155
G0 F822.9 X61.039 Y179.32
G0 X61.039 Y178.82
G0 X61.239 Y178.53
;TYPE:SKIN
G1 F480 X58.777 Y178.536 E183.91438
G1 X57.436 Y178.527 E183.98128
G1 X57.343 Y178.507 E183.98603
G1 X57.272 Y178.479 E183.98984
G1 X57.207 Y178.442 E183.99357
G1 X57.131 Y178.38 E183.99846
G1 X57.078 Y178.321 E184.00242
G1 X57.03 Y178.244 E184.00695
G1 X56.997 Y178.168 E184.01108
G1 X56.975 Y178.08 E184.01561
G1 X56.966 Y177.978 E184.02071
G1 X56.967 Y92.019 E188.30923
G1 X56.975 Y91.92 E188.31418
G1 X56.997 Y91.831 E188.31876
G1 X57.03 Y91.756 E188.32284
G1 X57.078 Y91.679 E188.32737
G1 X57.131 Y91.62 E188.33133
G1 X57.207 Y91.558 E188.33622
G1 X57.269 Y91.522 E188.3398
G1 X57.349 Y91.491 E188.34408
G1 X57.444 Y91.471 E188.34892
G1 X57.539 Y91.466 E188.35367
G1 X143.492 Y91.467 E192.64188
G1 X143.611 Y91.481 E192.64786
G1 X143.684 Y91.503 E192.65166
G1 X143.772 Y91.544 E192.6565
G1 X143.833 Y91.587 E192.66023
G1 X143.899 Y91.649 E192.66475
G1 X143.954 Y91.723 E192.66935
G1 X143.984 Y91.779 E192.67252
G1 X144.015 Y91.873 E192.67745
G1 X144.03 Y91.966 E192.68215
G1 X144.029 Y178.047 E196.97675
G1 X144.018 Y178.115 E196.98019
G1 X143.984 Y178.221 E196.98574
G1 X143.954 Y178.277 E196.98891
G1 X143.899 Y178.351 E196.99351
G1 X143.833 Y178.413 E196.99803
G1 X143.772 Y178.456 E197.00175
G1 X143.684 Y178.497 E197.0066
G1 X143.611 Y178.519 E197.0104
G1 X143.492 Y178.533 E197.01638
G1 X61.239 Y178.53 E201.12
G0 F822.9 X57.497 Y171.793
G1 F480 X86.503 Y171.793 E202.56711
G1 X86.503 Y166.787 E202.81686
G1 X57.497 Y166.787 E204.26398
G1 X57.497 Y171.793 E204.51373
G0 F822.9 X57.497 Y164.173
G1 F480 X86.503 Y164.173 E205.96084
G1 X86.503 Y159.167 E206.21059
G1 X57.497 Y159.167 E207.65771
G1 X57.497 Y164.173 E207.90746
G0 F822.9 X57.497 Y156.553
G1 F480 X86.503 Y156.553 E209.35457
G1 X86.503 Y151.547 E209.60432
G1 X57.497 Y151.547 E211.05144
G1 X57.497 Y156.553 E211.30119
G0 F822.9 X57.497 Y148.933
G1 F480 X86.503 Y148.933 E212.74831
G1 X86.503 Y143.927 E212.99806
G1 X57.497 Y143.927 E214.44517
G1 X57.497 Y148.933 E214.69492
G0 F822.9 X57.497 Y141.313
G1 F480 X86.503 Y141.313 E216.14204
G1 X86.503 Y136.307 E216.39179
G1 X57.497 Y136.307 E217.8389
G1 X57.497 Y141.313 E218.08865
G0 F822.9 X57.497 Y133.693
G1 F480 X86.503 Y133.693 E219.53577
G1 X86.503 Y128.687 E219.78552
G1 X57.497 Y128.687 E221.23263
G1 X57.497 Y133.693 E221.48238
G0 F822.9 X57.497 Y126.073
G1 F480 X86.503 Y126.073 E222.9295
G1 X86.503 Y121.067 E223.17925
G1 X57.497 Y121.067 E224.62636
G1 X57.497 Y126.073 E224.87611
G0 F822.9 X57.497 Y118.453
G1 F480 X86.503 Y118.453 E226.32323
G1 X86.503 Y113.447 E226.57298
G1 X57.497 Y113.447 E228.0201
G1 X57.497 Y118.453 E228.26985
G0 F822.9 X57.497 Y110.833
G1 F480 X86.503 Y110.833 E229.71696
G1 X86.503 Y105.827 E229.96671
G1 X57.497 Y105.827 E231.41383
G1 X57.497 Y110.833 E231.66358
G0 F822.9 X57.497 Y103.213
G1 F480 X86.503 Y103.213 E233.11069
G1 X86.503 Y98.207 E233.36044
G1 X57.497 Y98.207 E234.80756
G1 X57.497 Y103.213 E235.05731
G0 F822.9 X57.859 Y133.331
G0 X86.141 Y136.669
G0 X89.066 Y173.807
G1 F480 X141.935 Y173.808 E237.69495
G1 X141.935 Y96.538 E241.54997
G1 X89.065 Y96.538 E244.18766
G1 X89.066 Y173.807 E248.04263
G0 F822.9 X57.857 Y178.348
G1 F480 X57.146 Y177.637 E248.09279
G0 F822.9 X57.146 Y177.071
