;FLAVOR:Marlin
;TIME:7685
;Filament used: 6.21508m
;Layer height: 0.2
;Generated with Cura_SteamEngine 3.6.0
M140 S65
M105
M190 S65
M104 S215
M105
M109 S215
M82 ;absolute extrusion mode
G21 ;metric values
G90 ;absolute positioning
M82 ;set extruder to absolute mode
M107 ;start with the fan off
G28 X0 Y0 ;move X/Y to min endstops
G28 Z0 ;move Z to min endstops
M117 Auto-level...
G29 L1  ;load autolevel
G29 A   ;enable UBL
M117 Preparing...
G1 Z15.0 F9000 ;move the platform down 15mm
G92 E0 ;zero the extruded length
G1 F200 E3 ;extrude 3mm of feed stock
G92 E0 ;zero the extruded length again
G1 F9000
M117 Printing...
G92 E0
G1 F1500 E-6.5
;LAYER_COUNT:36
;LAYER:0
M107
G0 F822.9 X53.157 Y37.811 Z0.3
;TYPE:SKIRT
G1 F1500 E0
G1 F480 X53.45 Y37.4 E0.02518
G1 X53.805 Y37.039 E0.05044
G1 X54.038 Y36.855 E0.06525
G1 X54.489 Y36.532 E0.09293
G1 X54.922 Y36.271 E0.11815
G1 X55.39 Y36.082 E0.14333
G1 X55.639 Y36.014 E0.15621
G1 X56.287 Y35.866 E0.18937
G1 X57 Y35.786 E0.22517
G1 X143 Y35.787 E4.51572
G1 X143.504 Y35.827 E4.54095
G1 X143.831 Y35.897 E4.55763
G1 X144.586 Y36.1 E4.59664
G1 X145.062 Y36.269 E4.62184
G1 X145.506 Y36.512 E4.64709
G1 X145.932 Y36.844 E4.67403
G1 X146.431 Y37.307 E4.708
G1 X146.773 Y37.679 E4.73321
G1 X147.052 Y38.101 E4.75844
G1 X147.186 Y38.37 E4.77344
G1 X147.403 Y38.866 E4.80045
G1 X147.568 Y39.344 E4.82568
G1 X147.667 Y39.997 E4.85863
G1 X147.72 Y41.114 E4.91442
G1 X147.724 Y41.266 E4.922
G1 X147.703 Y217.683 E13.72348
G1 X147.663 Y218.187 E13.74871
G1 X147.558 Y218.636 E13.77171
G1 X147.397 Y219.152 E13.79868
G1 X147.209 Y219.621 E13.82389
G1 X146.949 Y220.055 E13.84913
G1 X146.733 Y220.326 E13.86642
G1 X146.242 Y220.878 E13.90328
G1 X145.877 Y221.228 E13.9285
G1 X145.462 Y221.516 E13.95371
G1 X145.045 Y221.72 E13.97687
G1 X144.443 Y221.962 E14.00924
G1 X143.96 Y222.113 E14.03448
G1 X143.249 Y222.193 E14.07018
G1 X56.773 Y222.195 E18.38448
G1 X56.269 Y222.155 E18.40971
G1 X55.782 Y222.038 E18.4347
G1 X55.3 Y221.881 E18.45999
G1 X54.833 Y221.687 E18.48522
G1 X54.301 Y221.344 E18.5168
G1 X53.874 Y221.005 E18.544
G1 X53.504 Y220.661 E18.5692
G1 X53.193 Y220.262 E18.59444
G1 X53.055 Y220.033 E18.60778
G1 X52.735 Y219.447 E18.64109
G1 X52.529 Y218.985 E18.66633
G1 X52.381 Y218.396 E18.69662
G1 X52.326 Y218.036 E18.71479
G1 X52.289 Y217.553 E18.73896
G1 X52.28 Y41.05 E27.54473
G1 X52.292 Y40.774 E27.55851
G1 X52.382 Y39.733 E27.61064
G1 X52.465 Y39.235 E27.63583
G1 X52.626 Y38.755 E27.66109
G1 X52.826 Y38.363 E27.68305
G1 X53.157 Y37.811 E27.71516
G1 F1500 E21.21516
;MESH:custom_gbhLab_Dark green.stl
G0 F822.9 X54.809 Y41.765
G0 X56.094 Y41.776
G0 X56.18 Y44.239
G0 X56.08 Y44.239
;TYPE:WALL-INNER
G1 F1500 E27.71516
G1 F480 X56.074 Y41.776 E27.83804
G1 X56.083 Y40.395 E27.90694
G1 X56.115 Y40.241 E27.91478
G1 X56.167 Y40.103 E27.92214
G1 X56.239 Y39.978 E27.92934
G1 X56.332 Y39.865 E27.93664
G1 X56.451 Y39.759 E27.94459
G1 X56.57 Y39.684 E27.95161
G1 X56.705 Y39.626 E27.95894
G1 X56.852 Y39.59 E27.96649
G1 X57.025 Y39.576 E27.97515
G1 X142.982 Y39.577 E32.26356
G1 X143.148 Y39.589 E32.27186
G1 X143.294 Y39.625 E32.27937
G1 X143.429 Y39.683 E32.2867
G1 X143.549 Y39.759 E32.29378
G1 X143.668 Y39.865 E32.30173
G1 X143.761 Y39.978 E32.30903
G1 X143.833 Y40.103 E32.31623
G1 X143.885 Y40.241 E32.32359
G1 X143.917 Y40.396 E32.33148
G1 X143.924 Y40.512 E32.33728
G1 X143.923 Y126.523 E36.62839
G1 X143.903 Y126.688 E36.63668
G1 X143.862 Y126.825 E36.64382
G1 X143.797 Y126.963 E36.65143
G1 X143.715 Y127.083 E36.65868
G1 X143.614 Y127.188 E36.66595
G1 X143.49 Y127.282 E36.67371
G1 X143.365 Y127.347 E36.68074
G1 X143.22 Y127.395 E36.68836
G1 X143.066 Y127.42 E36.69614
G1 X56.926 Y127.419 E40.99368
G1 X56.78 Y127.395 E41.00107
G1 X56.635 Y127.347 E41.00869
G1 X56.51 Y127.282 E41.01571
G1 X56.386 Y127.188 E41.02348
G1 X56.285 Y127.083 E41.03075
G1 X56.203 Y126.963 E41.038
G1 X56.138 Y126.825 E41.04561
G1 X56.097 Y126.688 E41.05274
G1 X56.077 Y126.523 E41.06103
G1 X56.08 Y44.239 E45.1662
G0 F822.9 X56.18 Y44.239
G0 X63.527 Y40.817
G0 X63.597 Y40.887
G1 F480 X63.597 Y69.113 E46.5744
G1 X67.823 Y69.113 E46.78524
G1 X67.823 Y40.887 E48.19344
G1 X63.597 Y40.887 E48.40427
G0 F822.9 X63.527 Y40.817
G0 X71.147 Y40.817
G0 X71.217 Y40.887
G1 F480 X71.217 Y69.113 E49.81247
G1 X75.443 Y69.113 E50.02331
G1 X75.443 Y40.887 E51.43151
G1 X71.217 Y40.887 E51.64235
G0 F822.9 X71.147 Y40.817
G0 X78.767 Y40.817
G0 X78.837 Y40.887
G1 F480 X78.837 Y69.113 E53.05055
G1 X83.063 Y69.113 E53.26138
G1 X83.063 Y40.887 E54.66958
G1 X78.837 Y40.887 E54.88042
G0 F822.9 X78.767 Y40.817
G0 X86.387 Y40.817
G0 X86.457 Y40.887
G1 F480 X86.457 Y69.113 E56.28862
G1 X90.683 Y69.113 E56.49946
G1 X90.683 Y40.887 E57.90766
G1 X86.457 Y40.887 E58.11849
G0 F822.9 X86.387 Y40.817
G0 X94.007 Y40.817
G0 X94.077 Y40.887
G1 F480 X94.077 Y69.113 E59.5267
G1 X98.303 Y69.113 E59.73753
G1 X98.303 Y40.887 E61.14573
G1 X94.077 Y40.887 E61.35657
G0 F822.9 X94.007 Y40.817
G0 X101.627 Y40.817
G0 X101.697 Y40.887
G1 F480 X101.697 Y69.113 E62.76477
G1 X105.923 Y69.113 E62.9756
G1 X105.923 Y40.887 E64.38381
G1 X101.697 Y40.887 E64.59464
G0 F822.9 X101.627 Y40.817
G0 X109.247 Y40.817
G0 X109.317 Y40.887
G1 F480 X109.317 Y69.113 E66.00284
G1 X113.543 Y69.113 E66.21368
G1 X113.543 Y40.887 E67.62188
G1 X109.317 Y40.887 E67.83272
G0 F822.9 X109.247 Y40.817
G0 X116.867 Y40.817
G0 X116.937 Y40.887
G1 F480 X116.937 Y69.113 E69.24092
G1 X121.163 Y69.113 E69.45175
G1 X121.163 Y40.887 E70.85995
G1 X116.937 Y40.887 E71.07079
G0 F822.9 X116.867 Y40.817
G0 X124.487 Y40.817
G0 X124.557 Y40.887
G1 F480 X124.557 Y69.113 E72.47899
G1 X128.783 Y69.113 E72.68983
G1 X128.783 Y40.887 E74.09803
G1 X124.557 Y40.887 E74.30886
G0 F822.9 X124.487 Y40.817
G0 X132.107 Y40.817
G0 X132.177 Y40.887
G1 F480 X132.177 Y69.113 E75.71706
G1 X136.403 Y69.113 E75.9279
G1 X136.403 Y40.887 E77.3361
G1 X132.177 Y40.887 E77.54694
G0 F822.9 X132.107 Y40.817
G0 X136.431 Y40.859
G0 X138.142 Y72.385
G0 X138.072 Y72.455
G1 F480 X137.872 Y72.455 E77.55691
G1 X61.583 Y72.456 E81.36299
G1 X61.582 Y124.345 E83.95174
G1 X61.582 Y124.545 E83.96172
G1 X61.782 Y124.545 E83.96818
G1 X138.072 Y124.545 E87.7743
G1 X138.072 Y72.655 E90.36311
G1 X138.072 Y72.455 E90.36957
G0 F822.9 X138.142 Y72.385
G0 X130.37 Y72.427
G0 X130.157 Y72.855
G0 X130.072 Y72.855
;TYPE:WALL-OUTER
G1 F480 X122.783 Y72.856 E90.73322
G1 X122.782 Y124.145 E93.29203
G1 X130.072 Y124.145 E93.65573
G1 X130.072 Y72.855 E96.2146
G0 F822.9 X129.872 Y72.855
G0 X130.157 Y72.855
G0 X130.085 Y72.427
G0 X115.169 Y72.427
G0 X115.097 Y72.855
G0 X115.182 Y72.855
G1 F480 X115.182 Y124.145 E98.77347
G1 X122.472 Y124.145 E99.13717
G1 X122.472 Y72.855 E101.1235
G1 X115.182 Y72.855 E101.4872
G0 F822.9 X115.182 Y73.055
G0 X114.872 Y72.855
G1 F480 X107.583 Y72.856 E101.85085
G1 X107.582 Y124.145 E104.40967
G1 X114.872 Y124.145 E104.77337
G1 X114.872 Y72.855 E106.75649
G0 F822.9 X114.672 Y72.855
G0 X114.957 Y72.855
G0 X114.885 Y72.427
G0 X107.57 Y72.427
G0 X107.357 Y72.855
G0 X107.272 Y72.855
G1 F480 X99.983 Y72.856 E107.12014
G1 X99.982 Y124.145 E109.67896
G1 X107.272 Y124.145 E110.04266
G1 X107.272 Y72.855 E112.02898
G0 F822.9 X107.072 Y72.855
G0 X107.357 Y72.855
G0 X107.285 Y72.427
G0 X99.97 Y72.427
G0 X99.757 Y72.855
G0 X99.672 Y72.855
G1 F480 X92.383 Y72.856 E112.39263
G1 X92.382 Y124.145 E114.95145
G1 X99.672 Y124.145 E115.31515
G1 X99.672 Y72.855 E117.30148
G0 F822.9 X99.472 Y72.855
G0 X99.757 Y72.855
G0 X99.685 Y72.428
G0 X92.37 Y72.428
G0 X92.157 Y72.855
G0 X92.072 Y72.855
G1 F480 X84.783 Y72.856 E117.66513
G1 X84.782 Y124.145 E120.22395
G1 X92.072 Y124.145 E120.58765
G1 X92.072 Y72.855 E122.57397
G0 F822.9 X91.872 Y72.855
G0 X92.157 Y72.855
G0 X92.085 Y72.428
G0 X84.77 Y72.428
G0 X84.557 Y72.855
G0 X84.472 Y72.855
G1 F480 X77.183 Y72.856 E122.93762
G1 X77.182 Y124.145 E125.49644
G1 X84.472 Y124.145 E125.86014
G1 X84.472 Y72.855 E127.84647
G0 F822.9 X84.272 Y72.855
G0 X84.557 Y72.855
G0 X84.485 Y72.428
G0 X77.17 Y72.428
G0 X76.957 Y72.855
G0 X76.872 Y72.855
G1 F480 X69.583 Y72.856 E128.21012
G1 X69.582 Y124.145 E130.76894
G1 X76.872 Y124.145 E131.13264
G1 X76.872 Y72.855 E133.11896
G0 F822.9 X76.672 Y72.855
G0 X76.957 Y72.855
G0 X78.809 Y40.859
G0 X79.237 Y40.787
G0 X79.237 Y41.287
G1 F480 X79.237 Y68.713 E134.48725
G1 X82.663 Y68.713 E134.65818
G1 X82.663 Y41.287 E136.02647
G1 X79.237 Y41.287 E136.19739
G0 F822.9 X79.237 Y41.487
G0 X78.737 Y41.487
G0 X78.809 Y40.859
G0 X86.857 Y40.787
G0 X86.857 Y41.287
G1 F480 X86.857 Y68.713 E137.56568
G1 X90.283 Y68.713 E137.7366
G1 X90.283 Y41.287 E139.10489
G1 X86.857 Y41.287 E139.27581
G0 F822.9 X86.857 Y41.487
G0 X86.357 Y41.487
G0 X86.429 Y40.859
G0 X94.477 Y40.787
G0 X94.477 Y41.287
G1 F480 X94.477 Y68.713 E140.6441
G1 X97.903 Y68.713 E140.81503
G1 X97.903 Y41.287 E142.18332
G1 X94.477 Y41.287 E142.35424
G0 F822.9 X94.477 Y41.487
G0 X93.977 Y41.487
G0 X94.049 Y40.859
G0 X102.097 Y40.787
G0 X102.097 Y41.287
G1 F480 X102.097 Y68.713 E143.72253
G1 X105.523 Y68.713 E143.89345
G1 X105.523 Y41.287 E145.26174
G1 X102.097 Y41.287 E145.43266
G0 F822.9 X102.097 Y41.487
G0 X101.597 Y41.487
G0 X101.669 Y40.859
G0 X109.717 Y40.787
G0 X109.717 Y41.287
G1 F480 X109.717 Y68.713 E146.80095
G1 X113.143 Y68.713 E146.97188
G1 X113.143 Y41.287 E148.34017
G1 X109.717 Y41.287 E148.51109
G0 F822.9 X109.717 Y41.487
G0 X109.217 Y41.487
G0 X109.289 Y40.859
G0 X117.337 Y40.787
G0 X117.337 Y41.287
G1 F480 X117.337 Y68.713 E149.87938
G1 X120.763 Y68.713 E150.0503
G1 X120.763 Y41.287 E151.41859
G1 X117.337 Y41.287 E151.58952
G0 F822.9 X117.337 Y41.487
G0 X116.837 Y41.487
G0 X116.909 Y40.859
G0 X124.957 Y40.787
G0 X124.957 Y41.287
G1 F480 X124.957 Y68.713 E152.9578
G1 X128.383 Y68.713 E153.12873
G1 X128.383 Y41.287 E154.49702
G1 X124.957 Y41.287 E154.66794
G0 F822.9 X124.957 Y41.487
G0 X124.457 Y41.487
G0 X124.529 Y40.859
G0 X132.577 Y40.787
G0 X132.577 Y41.287
G1 F480 X132.577 Y68.713 E156.03623
G1 X136.003 Y68.713 E156.20715
G1 X136.003 Y41.287 E157.57544
G1 X132.577 Y41.287 E157.74637
G0 F822.9 X132.577 Y41.487
G0 X132.077 Y41.487
G0 X128.811 Y40.859
G0 X71.617 Y40.787
G0 X71.617 Y41.287
G1 F480 X71.617 Y68.713 E159.11465
G1 X75.043 Y68.713 E159.28558
G1 X75.043 Y41.287 E160.65387
G1 X71.617 Y41.287 E160.82479
G0 F822.9 X71.617 Y41.487
G0 X71.117 Y41.487
G0 X67.851 Y40.859
G0 X63.997 Y40.787
G0 X63.997 Y41.287
G1 F480 X63.997 Y68.713 E162.19308
G1 X67.423 Y68.713 E162.364
G1 X67.423 Y41.287 E163.73229
G1 X63.997 Y41.287 E163.90322
G0 F822.9 X63.997 Y41.487
G0 X63.497 Y41.487
G0 X56.179 Y44.24
G0 X55.68 Y44.239
G1 F480 X55.674 Y41.774 E164.0262
G1 X55.679 Y40.478 E164.09085
G1 X55.686 Y40.339 E164.0978
G1 X55.729 Y40.132 E164.10834
G1 X55.805 Y39.931 E164.11907
G1 X55.911 Y39.748 E164.12962
G1 X56.043 Y39.586 E164.14004
G1 X56.207 Y39.441 E164.15096
G1 X56.383 Y39.329 E164.16137
G1 X56.583 Y39.244 E164.17221
G1 X56.787 Y39.194 E164.18269
G1 X57.004 Y39.176 E164.19355
G1 X142.999 Y39.177 E168.48386
G1 X143.213 Y39.193 E168.49457
G1 X143.417 Y39.243 E168.50505
G1 X143.617 Y39.329 E168.51591
G1 X143.793 Y39.441 E168.52632
G1 X143.957 Y39.586 E168.53724
G1 X144.089 Y39.748 E168.54766
G1 X144.195 Y39.931 E168.55822
G1 X144.271 Y40.132 E168.56894
G1 X144.314 Y40.339 E168.57948
G1 X144.324 Y40.512 E168.58813
G1 X144.323 Y126.546 E172.88038
G1 X144.296 Y126.768 E172.89154
G1 X144.236 Y126.97 E172.90205
G1 X144.146 Y127.162 E172.91263
G1 X144.026 Y127.336 E172.92318
G1 X143.877 Y127.491 E172.9339
G1 X143.708 Y127.619 E172.94448
G1 X143.521 Y127.717 E172.95501
G1 X143.314 Y127.785 E172.96588
G1 X143.107 Y127.819 E172.97635
G1 X142.992 Y127.824 E172.98209
G1 X56.891 Y127.819 E177.27769
G1 X56.686 Y127.785 E177.28806
G1 X56.479 Y127.717 E177.29893
G1 X56.292 Y127.619 E177.30946
G1 X56.123 Y127.491 E177.32004
G1 X55.974 Y127.336 E177.33076
G1 X55.854 Y127.162 E177.34131
G1 X55.764 Y126.97 E177.35189
G1 X55.704 Y126.768 E177.3624
G1 X55.677 Y126.546 E177.37356
G1 X55.68 Y44.239 E181.47987
G0 F822.9 X55.68 Y44.039
G0 X56.18 Y44.039
G0 X61.483 Y124.144
G0 X61.982 Y124.145
G1 F480 X62.182 Y124.145 E181.48985
G1 X69.272 Y124.145 E181.84357
G1 X69.272 Y73.055 E184.39246
G1 X69.272 Y72.855 E184.40244
G1 X69.072 Y72.855 E184.4089
G1 X61.983 Y72.856 E184.76257
G1 X61.982 Y123.945 E187.31141
G1 X61.982 Y124.145 E187.31787
G0 F822.9 X62.182 Y124.145
G0 X62.182 Y124.645
G0 X130.085 Y124.573
G0 X130.298 Y124.145
G0 X130.382 Y124.145
G1 F480 X130.582 Y124.145 E187.32785
G1 X137.672 Y124.145 E187.68157
G1 X137.672 Y73.055 E190.23046
G1 X137.672 Y72.855 E190.24044
G1 X137.472 Y72.855 E190.2469
G1 X130.383 Y72.856 E190.60057
G1 X130.382 Y123.945 E193.14941
G1 X130.382 Y124.145 E193.15587
G0 F822.9 X130.582 Y124.145
G0 X130.298 Y124.144
G0 X130.369 Y124.573
G0 X138.462 Y124.935
;TYPE:SKIN
G1 F480 X138.462 Y72.065 E195.79357
G1 X61.193 Y72.066 E199.64853
G1 X61.192 Y124.935 E202.28618
G1 X138.462 Y124.935 E206.1412
G0 F822.9 X143.034 Y127.03
G1 F480 X56.953 Y127.029 E210.43579
G1 X56.883 Y127.017 E210.43934
G1 X56.78 Y126.984 E210.44473
G1 X56.723 Y126.954 E210.44795
G1 X56.649 Y126.898 E210.45258
G1 X56.587 Y126.835 E210.45699
G1 X56.543 Y126.769 E210.46094
G1 X56.503 Y126.685 E210.46559
G1 X56.481 Y126.612 E210.46939
G1 X56.467 Y126.492 E210.47542
G1 X56.47 Y44.239 E214.57904
G1 X56.464 Y41.778 E214.70182
G1 X56.473 Y40.436 E214.76877
G1 X56.49 Y40.351 E214.77309
G1 X56.522 Y40.267 E214.77758
G1 X56.562 Y40.198 E214.78156
G1 X56.609 Y40.14 E214.78528
G1 X56.687 Y40.071 E214.79048
G1 X56.75 Y40.031 E214.7942
G1 X56.83 Y39.997 E214.79854
G1 X56.92 Y39.975 E214.80316
G1 X57.033 Y39.966 E214.80882
G1 X142.981 Y39.967 E219.09678
G1 X143.084 Y39.975 E219.10193
G1 X143.166 Y39.995 E219.10614
G1 X143.25 Y40.031 E219.1107
G1 X143.311 Y40.069 E219.11429
G1 X143.391 Y40.14 E219.11963
G1 X143.438 Y40.198 E219.12335
G1 X143.478 Y40.267 E219.12733
G1 X143.509 Y40.351 E219.1318
G1 X143.529 Y40.443 E219.13649
G1 X143.534 Y40.535 E219.14109
G1 X143.533 Y126.492 E223.4295
G1 X143.519 Y126.612 E223.43553
G1 X143.497 Y126.685 E223.43933
G1 X143.457 Y126.769 E223.44397
G1 X143.413 Y126.835 E223.44793
G1 X143.351 Y126.898 E223.45234
G1 X143.277 Y126.954 E223.45697
G1 X143.221 Y126.984 E223.46014
G1 X143.124 Y127.015 E223.46522
G1 X143.034 Y127.03 E223.46977
G0 F822.9 X138.1 Y72.427
G0 X131.787 Y69.503
G1 F480 X136.793 Y69.503 E223.71952
G1 X136.793 Y40.497 E225.16664
G1 X131.787 Y40.497 E225.41639
G1 X131.787 Y69.503 E226.8635
G0 F822.9 X129.173 Y69.503
G1 F480 X129.173 Y40.497 E228.31062
G1 X124.167 Y40.497 E228.56037
G1 X124.167 Y69.503 E230.00749
G1 X129.173 Y69.503 E230.25724
G0 F822.9 X121.553 Y69.503
G1 F480 X121.553 Y40.497 E231.70435
G1 X116.547 Y40.497 E231.9541
G1 X116.547 Y69.503 E233.40122
G1 X121.553 Y69.503 E233.65097
G0 F822.9 X113.933 Y69.503
G1 F480 X113.933 Y40.497 E235.09808
G1 X108.927 Y40.497 E235.34783
G1 X108.927 Y69.503 E236.79495
G1 X113.933 Y69.503 E237.0447
G0 F822.9 X106.313 Y69.503
G1 F480 X106.313 Y40.497 E238.49181
G1 X101.307 Y40.497 E238.74156
G1 X101.307 Y69.503 E240.18868
G1 X106.313 Y69.503 E240.43843
G0 F822.9 X98.693 Y69.503
G1 F480 X98.693 Y40.497 E241.88554
G1 X93.687 Y40.497 E242.1353
G1 X93.687 Y69.503 E243.58241
G1 X98.693 Y69.503 E243.83216
G0 F822.9 X91.073 Y69.503
G1 F480 X91.073 Y40.497 E245.27928
G1 X86.067 Y40.497 E245.52903
G1 X86.067 Y69.503 E246.97614
G1 X91.073 Y69.503 E247.22589
G0 F822.9 X83.453 Y69.503
G1 F480 X83.453 Y40.497 E248.67301
G1 X78.447 Y40.497 E248.92276
G1 X78.447 Y69.503 E250.36987
G1 X83.453 Y69.503 E250.61962
G0 F822.9 X75.833 Y69.503
G1 F480 X75.833 Y40.497 E252.06674
G1 X70.827 Y40.497 E252.31649
G1 X70.827 Y69.503 E253.7636
G1 X75.833 Y69.503 E254.01335
G0 F822.9 X68.213 Y69.503
G1 F480 X68.213 Y40.497 E255.46047
G1 X63.207 Y40.497 E255.71022
G1 X63.207 Y69.503 E257.15733
G1 X68.213 Y69.503 E257.40709
G0 F822.9 X61.555 Y72.428
G0 X57.269 Y126.848
G1 F480 X56.647 Y126.226 E257.45097
G0 F822.9 X56.647 Y125.66
G1 F480 X57.834 Y126.848 E257.53476
G0 F822.9 X58.4 Y126.848
G1 F480 X56.647 Y125.094 E257.65847
G0 F822.9 X56.647 Y124.529
G1 F480 X58.966 Y126.848 E257.82209
G0 F822.9 X59.532 Y126.848
