;FLAVOR:Marlin
;TIME:7648
;Filament used: 6.19569m
;Layer height: 0.2
;Generated with Cura_SteamEngine 3.6.0
M140 S65
M105
M190 S65
M104 S215
M105
M109 S215
M82 ;absolute extrusion mode
G21 ;metric values
G90 ;absolute positioning
M82 ;set extruder to absolute mode
M107 ;start with the fan off
G28 X0 Y0 ;move X/Y to min endstops
G28 Z0 ;move Z to min endstops
M117 Auto-level...
G29 L1  ;load autolevel
G29 A   ;enable UBL
M117 Preparing...
G1 Z15.0 F9000 ;move the platform down 15mm
G92 E0 ;zero the extruded length
G1 F200 E3 ;extrude 3mm of feed stock
G92 E0 ;zero the extruded length again
G1 F9000
M117 Printing...
G92 E0
G1 F1500 E-6.5
;LAYER_COUNT:36
;LAYER:0
M107
G0 F822.9 X53.03 Y37.964 Z0.3
;TYPE:SKIRT
G1 F1500 E0
G1 F480 X53.326 Y37.554 E0.02523
G1 X53.528 Y37.338 E0.03998
G1 X53.918 Y36.957 E0.06718
G1 X54.306 Y36.633 E0.0924
G1 X54.741 Y36.375 E0.11764
G1 X55.028 Y36.25 E0.13325
G1 X55.688 Y36.002 E0.16843
G1 X56.174 Y35.863 E0.19365
G1 X56.814 Y35.798 E0.22574
G1 X143.254 Y35.808 E4.53825
G1 X143.758 Y35.848 E4.56347
G1 X144.303 Y35.985 E4.59151
G1 X144.77 Y36.147 E4.61617
G1 X145.233 Y36.35 E4.64139
G1 X145.658 Y36.623 E4.66659
G1 X145.855 Y36.785 E4.67932
G1 X146.378 Y37.253 E4.71433
G1 X146.727 Y37.619 E4.73956
G1 X147.005 Y38.02 E4.76391
G1 X147.131 Y38.235 E4.77634
G1 X147.351 Y38.69 E4.80155
G1 X147.478 Y39.091 E4.82254
G1 X147.618 Y39.662 E4.85187
G1 X147.699 Y40.161 E4.87709
G1 X147.71 Y40.424 E4.89022
G1 X147.725 Y216.285 E13.66396
G1 X147.722 Y216.422 E13.6708
G1 X147.652 Y218.052 E13.7522
G1 X147.591 Y218.554 E13.77743
G1 X147.451 Y219.04 E13.80266
G1 X147.307 Y219.366 E13.82044
G1 X147.045 Y219.881 E13.84927
G1 X146.781 Y220.312 E13.87448
G1 X146.452 Y220.696 E13.89971
G1 X146.252 Y220.88 E13.91327
G1 X145.763 Y221.291 E13.94514
G1 X145.351 Y221.584 E13.97036
G1 X144.899 Y221.81 E13.99557
G1 X144.46 Y221.951 E14.01858
G1 X143.748 Y222.124 E14.05513
G1 X143.248 Y222.204 E14.08039
G1 X142.991 Y222.214 E14.09322
G1 X56.682 Y222.179 E18.3992
G1 X56.178 Y222.139 E18.42442
G1 X55.523 Y221.962 E18.45827
G1 X55.078 Y221.789 E18.48209
G1 X54.623 Y221.569 E18.50731
G1 X54.055 Y221.146 E18.54264
G1 X53.563 Y220.687 E18.57621
G1 X53.222 Y220.314 E18.60142
G1 X52.944 Y219.892 E18.62663
G1 X52.81 Y219.62 E18.64176
G1 X52.591 Y219.115 E18.66922
G1 X52.427 Y218.637 E18.69443
G1 X52.341 Y218.139 E18.71965
G1 X52.327 Y217.842 E18.73448
G1 X52.307 Y40.255 E27.59433
G1 X52.347 Y39.751 E27.61956
G1 X52.545 Y39.043 E27.65623
G1 X52.802 Y38.415 E27.69009
G1 X53.03 Y37.964 E27.7153
G1 F1500 E21.2153
;MESH:custom_5 BY 5_Yellow.stl
G0 F822.9 X54.809 Y41.765
G0 X56.094 Y41.776
G0 X56.18 Y44.239
G0 X56.08 Y44.239
;TYPE:WALL-INNER
G1 F1500 E27.7153
G1 F480 X56.074 Y41.776 E27.83818
G1 X56.083 Y40.395 E27.90708
G1 X56.115 Y40.241 E27.91493
G1 X56.167 Y40.103 E27.92228
G1 X56.239 Y39.978 E27.92948
G1 X56.332 Y39.865 E27.93678
G1 X56.451 Y39.759 E27.94473
G1 X56.571 Y39.683 E27.95182
G1 X56.705 Y39.625 E27.9591
G1 X56.853 Y39.589 E27.9667
G1 X57.021 Y39.576 E27.97511
G1 X142.979 Y39.577 E32.26357
G1 X143.148 Y39.59 E32.27203
G1 X143.295 Y39.626 E32.27958
G1 X143.43 Y39.684 E32.28691
G1 X143.549 Y39.759 E32.29393
G1 X143.668 Y39.865 E32.30188
G1 X143.761 Y39.978 E32.30918
G1 X143.833 Y40.103 E32.31638
G1 X143.885 Y40.241 E32.32373
G1 X143.917 Y40.396 E32.33163
G1 X143.924 Y40.512 E32.33743
G1 X143.923 Y126.523 E36.62853
G1 X143.903 Y126.688 E36.63683
G1 X143.862 Y126.825 E36.64396
G1 X143.797 Y126.963 E36.65157
G1 X143.715 Y127.083 E36.65882
G1 X143.614 Y127.188 E36.66609
G1 X143.49 Y127.282 E36.67385
G1 X143.365 Y127.347 E36.68088
G1 X143.22 Y127.395 E36.6885
G1 X143.066 Y127.42 E36.69629
G1 X56.926 Y127.419 E40.99383
G1 X56.78 Y127.395 E41.00121
G1 X56.635 Y127.347 E41.00883
G1 X56.51 Y127.282 E41.01586
G1 X56.386 Y127.188 E41.02362
G1 X56.285 Y127.083 E41.03089
G1 X56.203 Y126.963 E41.03814
G1 X56.138 Y126.825 E41.04575
G1 X56.097 Y126.688 E41.05289
G1 X56.077 Y126.523 E41.06118
G1 X56.08 Y44.239 E45.16634
G0 F822.9 X56.18 Y44.239
G0 X63.527 Y40.817
G0 X63.597 Y40.887
G1 F480 X63.597 Y69.113 E46.57454
G1 X67.823 Y69.113 E46.78538
G1 X67.823 Y40.887 E48.19358
G1 X63.597 Y40.887 E48.40442
G0 F822.9 X63.527 Y40.817
G0 X71.147 Y40.817
G0 X71.217 Y40.887
G1 F480 X71.217 Y69.113 E49.81262
G1 X75.443 Y69.113 E50.02345
G1 X75.443 Y40.887 E51.43166
G1 X71.217 Y40.887 E51.64249
G0 F822.9 X71.147 Y40.817
G0 X78.767 Y40.817
G0 X78.837 Y40.887
G1 F480 X78.837 Y69.113 E53.05069
G1 X83.063 Y69.113 E53.26153
G1 X83.063 Y40.887 E54.66973
G1 X78.837 Y40.887 E54.88057
G0 F822.9 X78.767 Y40.817
G0 X86.387 Y40.817
G0 X86.457 Y40.887
G1 F480 X86.457 Y69.113 E56.28877
G1 X90.683 Y69.113 E56.4996
G1 X90.683 Y40.887 E57.9078
G1 X86.457 Y40.887 E58.11864
G0 F822.9 X86.387 Y40.817
G0 X94.007 Y40.817
G0 X94.077 Y40.887
G1 F480 X94.077 Y69.113 E59.52684
G1 X98.303 Y69.113 E59.73768
G1 X98.303 Y40.887 E61.14588
G1 X94.077 Y40.887 E61.35671
G0 F822.9 X94.007 Y40.817
G0 X101.627 Y40.817
G0 X101.697 Y40.887
G1 F480 X101.697 Y69.113 E62.76491
G1 X105.923 Y69.113 E62.97575
G1 X105.923 Y40.887 E64.38395
G1 X101.697 Y40.887 E64.59479
G0 F822.9 X101.627 Y40.817
G0 X109.247 Y40.817
G0 X109.317 Y40.887
G1 F480 X109.317 Y69.113 E66.00299
G1 X113.543 Y69.113 E66.21382
G1 X113.543 Y40.887 E67.62202
G1 X109.317 Y40.887 E67.83286
G0 F822.9 X109.247 Y40.817
G0 X116.867 Y40.817
G0 X116.937 Y40.887
G1 F480 X116.937 Y69.113 E69.24106
G1 X121.163 Y69.113 E69.4519
G1 X121.163 Y40.887 E70.8601
G1 X116.937 Y40.887 E71.07093
G0 F822.9 X116.867 Y40.817
G0 X124.487 Y40.817
G0 X124.557 Y40.887
G1 F480 X124.557 Y69.113 E72.47913
G1 X128.783 Y69.113 E72.68997
G1 X128.783 Y40.887 E74.09817
G1 X124.557 Y40.887 E74.30901
G0 F822.9 X124.487 Y40.817
G0 X132.107 Y40.817
G0 X132.177 Y40.887
G1 F480 X132.177 Y69.113 E75.71721
G1 X136.403 Y69.113 E75.92804
G1 X136.403 Y40.887 E77.33625
G1 X132.177 Y40.887 E77.54708
G0 F822.9 X132.107 Y40.817
G0 X136.431 Y40.859
G0 X138.142 Y72.385
G0 X138.072 Y72.455
G1 F480 X137.872 Y72.455 E77.55706
G1 X61.583 Y72.456 E81.36313
G1 X61.582 Y124.345 E83.95189
G1 X61.582 Y124.545 E83.96186
G1 X61.782 Y124.545 E83.96832
G1 X138.072 Y124.545 E87.77445
G1 X138.072 Y72.655 E90.36325
G1 X138.072 Y72.455 E90.36971
G0 F822.9 X138.142 Y72.385
G0 X130.37 Y72.427
G0 X130.157 Y72.855
G0 X130.072 Y72.855
;TYPE:WALL-OUTER
G1 F480 X122.783 Y72.856 E90.73336
G1 X122.782 Y124.145 E93.29218
G1 X130.072 Y124.145 E93.65588
G1 X130.072 Y72.855 E96.21475
G0 F822.9 X129.872 Y72.855
G0 X130.157 Y72.855
G0 X130.085 Y72.427
G0 X115.169 Y72.427
G0 X115.097 Y72.855
G0 X115.182 Y72.855
G1 F480 X115.182 Y124.145 E98.77362
G1 X122.472 Y124.145 E99.13732
G1 X122.472 Y72.855 E101.12364
G1 X115.182 Y72.855 E101.48734
G0 F822.9 X115.182 Y73.055
G0 X114.872 Y72.855
G1 F480 X107.583 Y72.856 E101.85099
G1 X107.582 Y124.145 E104.40981
G1 X114.872 Y124.145 E104.77351
G1 X114.872 Y72.855 E106.75663
G0 F822.9 X114.672 Y72.855
G0 X114.957 Y72.855
G0 X114.885 Y72.427
G0 X107.57 Y72.427
G0 X107.357 Y72.855
G0 X107.272 Y72.855
G1 F480 X99.983 Y72.856 E107.12028
G1 X99.982 Y124.145 E109.6791
G1 X107.272 Y124.145 E110.0428
G1 X107.272 Y72.855 E112.02913
G0 F822.9 X107.072 Y72.855
G0 X107.357 Y72.855
G0 X107.285 Y72.427
G0 X99.97 Y72.427
G0 X99.757 Y72.855
G0 X99.672 Y72.855
G1 F480 X92.383 Y72.856 E112.39278
G1 X92.382 Y124.145 E114.9516
G1 X99.672 Y124.145 E115.3153
G1 X99.672 Y72.855 E117.30162
G0 F822.9 X99.472 Y72.855
G0 X99.757 Y72.855
G0 X99.685 Y72.428
G0 X92.37 Y72.428
G0 X92.157 Y72.855
G0 X92.072 Y72.855
G1 F480 X84.783 Y72.856 E117.66527
G1 X84.782 Y124.145 E120.22409
G1 X92.072 Y124.145 E120.58779
G1 X92.072 Y72.855 E122.57412
G0 F822.9 X91.872 Y72.855
G0 X92.157 Y72.855
G0 X92.085 Y72.428
G0 X84.77 Y72.428
G0 X84.557 Y72.855
G0 X84.472 Y72.855
G1 F480 X77.183 Y72.856 E122.93777
G1 X77.182 Y124.145 E125.49659
G1 X84.472 Y124.145 E125.86029
G1 X84.472 Y72.855 E127.84661
G0 F822.9 X84.272 Y72.855
G0 X84.557 Y72.855
G0 X84.485 Y72.428
G0 X77.17 Y72.428
G0 X76.957 Y72.855
G0 X76.872 Y72.855
G1 F480 X69.583 Y72.856 E128.21026
G1 X69.582 Y124.145 E130.76908
G1 X76.872 Y124.145 E131.13278
G1 X76.872 Y72.855 E133.11911
G0 F822.9 X76.672 Y72.855
G0 X76.957 Y72.855
G0 X78.809 Y40.859
G0 X79.237 Y40.787
G0 X79.237 Y41.287
G1 F480 X79.237 Y68.713 E134.4874
G1 X82.663 Y68.713 E134.65832
G1 X82.663 Y41.287 E136.02661
G1 X79.237 Y41.287 E136.19753
G0 F822.9 X79.237 Y41.487
G0 X78.737 Y41.487
G0 X78.809 Y40.859
G0 X86.857 Y40.787
G0 X86.857 Y41.287
G1 F480 X86.857 Y68.713 E137.56582
G1 X90.283 Y68.713 E137.73675
G1 X90.283 Y41.287 E139.10504
G1 X86.857 Y41.287 E139.27596
G0 F822.9 X86.857 Y41.487
G0 X86.357 Y41.487
G0 X86.429 Y40.859
G0 X94.477 Y40.787
G0 X94.477 Y41.287
G1 F480 X94.477 Y68.713 E140.64425
G1 X97.903 Y68.713 E140.81517
G1 X97.903 Y41.287 E142.18346
G1 X94.477 Y41.287 E142.35438
G0 F822.9 X94.477 Y41.487
G0 X93.977 Y41.487
G0 X94.049 Y40.859
G0 X102.097 Y40.787
G0 X102.097 Y41.287
G1 F480 X102.097 Y68.713 E143.72267
G1 X105.523 Y68.713 E143.8936
G1 X105.523 Y41.287 E145.26189
G1 X102.097 Y41.287 E145.43281
G0 F822.9 X102.097 Y41.487
G0 X101.597 Y41.487
G0 X101.669 Y40.859
G0 X109.717 Y40.787
G0 X109.717 Y41.287
G1 F480 X109.717 Y68.713 E146.8011
G1 X113.143 Y68.713 E146.97202
G1 X113.143 Y41.287 E148.34031
G1 X109.717 Y41.287 E148.51123
G0 F822.9 X109.717 Y41.487
G0 X109.217 Y41.487
G0 X109.289 Y40.859
G0 X117.337 Y40.787
G0 X117.337 Y41.287
G1 F480 X117.337 Y68.713 E149.87952
G1 X120.763 Y68.713 E150.05045
G1 X120.763 Y41.287 E151.41874
G1 X117.337 Y41.287 E151.58966
G0 F822.9 X117.337 Y41.487
G0 X116.837 Y41.487
G0 X116.909 Y40.859
G0 X124.957 Y40.787
G0 X124.957 Y41.287
G1 F480 X124.957 Y68.713 E152.95795
G1 X128.383 Y68.713 E153.12887
G1 X128.383 Y41.287 E154.49716
G1 X124.957 Y41.287 E154.66808
G0 F822.9 X124.957 Y41.487
G0 X124.457 Y41.487
G0 X124.529 Y40.859
G0 X132.577 Y40.787
G0 X132.577 Y41.287
G1 F480 X132.577 Y68.713 E156.03637
G1 X136.003 Y68.713 E156.2073
G1 X136.003 Y41.287 E157.57559
G1 X132.577 Y41.287 E157.74651
G0 F822.9 X132.577 Y41.487
G0 X132.077 Y41.487
G0 X128.811 Y40.859
G0 X71.617 Y40.787
G0 X71.617 Y41.287
G1 F480 X71.617 Y68.713 E159.1148
G1 X75.043 Y68.713 E159.28572
G1 X75.043 Y41.287 E160.65401
G1 X71.617 Y41.287 E160.82493
G0 F822.9 X71.617 Y41.487
G0 X71.117 Y41.487
G0 X67.851 Y40.859
G0 X63.997 Y40.787
G0 X63.997 Y41.287
G1 F480 X63.997 Y68.713 E162.19322
G1 X67.423 Y68.713 E162.36415
G1 X67.423 Y41.287 E163.73244
G1 X63.997 Y41.287 E163.90336
G0 F822.9 X63.997 Y41.487
G0 X63.497 Y41.487
G0 X56.179 Y44.24
G0 X55.68 Y44.239
G1 F480 X55.674 Y41.774 E164.02634
G1 X55.679 Y40.478 E164.091
G1 X55.686 Y40.339 E164.09794
G1 X55.729 Y40.132 E164.10849
G1 X55.805 Y39.931 E164.11921
G1 X55.911 Y39.748 E164.12976
G1 X56.043 Y39.586 E164.14019
G1 X56.207 Y39.441 E164.15111
G1 X56.383 Y39.329 E164.16152
G1 X56.583 Y39.243 E164.17238
G1 X56.788 Y39.193 E164.1829
G1 X57.002 Y39.176 E164.19361
G1 X142.998 Y39.177 E168.48397
G1 X143.213 Y39.194 E168.49473
G1 X143.417 Y39.244 E168.50521
G1 X143.617 Y39.329 E168.51605
G1 X143.793 Y39.441 E168.52646
G1 X143.957 Y39.586 E168.53738
G1 X144.089 Y39.748 E168.54781
G1 X144.195 Y39.931 E168.55836
G1 X144.271 Y40.132 E168.56908
G1 X144.314 Y40.339 E168.57963
G1 X144.324 Y40.512 E168.58827
G1 X144.323 Y126.546 E172.88053
G1 X144.296 Y126.768 E172.89168
G1 X144.236 Y126.97 E172.9022
G1 X144.146 Y127.162 E172.91278
G1 X144.026 Y127.336 E172.92332
G1 X143.877 Y127.491 E172.93405
G1 X143.708 Y127.619 E172.94462
G1 X143.521 Y127.717 E172.95516
G1 X143.314 Y127.785 E172.96603
G1 X143.107 Y127.819 E172.97649
G1 X142.992 Y127.824 E172.98224
G1 X56.891 Y127.819 E177.27783
G1 X56.686 Y127.785 E177.2882
G1 X56.479 Y127.717 E177.29907
G1 X56.292 Y127.619 E177.3096
G1 X56.123 Y127.491 E177.32018
G1 X55.974 Y127.336 E177.33091
G1 X55.854 Y127.162 E177.34145
G1 X55.764 Y126.97 E177.35203
G1 X55.704 Y126.768 E177.36254
G1 X55.677 Y126.546 E177.3737
G1 X55.68 Y44.239 E181.48001
G0 F822.9 X55.68 Y44.039
G0 X56.18 Y44.039
G0 X61.483 Y124.144
G0 X61.982 Y124.145
G1 F480 X62.182 Y124.145 E181.48999
G1 X69.272 Y124.145 E181.84371
G1 X69.272 Y73.055 E184.3926
G1 X69.272 Y72.855 E184.40258
G1 X69.072 Y72.855 E184.40904
G1 X61.983 Y72.856 E184.76271
G1 X61.982 Y123.945 E187.31155
G1 X61.982 Y124.145 E187.31801
G0 F822.9 X62.182 Y124.145
G0 X62.182 Y124.645
G0 X130.085 Y124.573
G0 X130.298 Y124.145
G0 X130.382 Y124.145
G1 F480 X130.582 Y124.145 E187.32799
G1 X137.672 Y124.145 E187.68171
G1 X137.672 Y73.055 E190.2306
G1 X137.672 Y72.855 E190.24058
G1 X137.472 Y72.855 E190.24704
G1 X130.383 Y72.856 E190.60072
G1 X130.382 Y123.945 E193.14956
G1 X130.382 Y124.145 E193.15602
G0 F822.9 X130.582 Y124.145
G0 X130.298 Y124.144
G0 X130.369 Y124.573
G0 X138.462 Y124.935
;TYPE:SKIN
G1 F480 X138.462 Y72.065 E195.79371
G1 X61.193 Y72.066 E199.64868
G1 X61.192 Y124.935 E202.28632
G1 X138.462 Y124.935 E206.14134
G0 F822.9 X143.034 Y127.03
G1 F480 X56.953 Y127.029 E210.43594
G1 X56.883 Y127.017 E210.43948
G1 X56.78 Y126.984 E210.44488
G1 X56.723 Y126.954 E210.44809
G1 X56.649 Y126.898 E210.45272
G1 X56.587 Y126.835 E210.45713
G1 X56.543 Y126.769 E210.46109
G1 X56.503 Y126.685 E210.46573
G1 X56.481 Y126.612 E210.46953
G1 X56.467 Y126.492 E210.47556
G1 X56.47 Y44.239 E214.57918
G1 X56.464 Y41.778 E214.70196
G1 X56.473 Y40.436 E214.76891
G1 X56.49 Y40.351 E214.77324
G1 X56.522 Y40.267 E214.77772
G1 X56.562 Y40.198 E214.7817
G1 X56.609 Y40.14 E214.78543
G1 X56.687 Y40.071 E214.79062
G1 X56.754 Y40.029 E214.79457
G1 X56.831 Y39.995 E214.79877
G1 X56.918 Y39.975 E214.80322
G1 X57.025 Y39.966 E214.80858
G1 X142.975 Y39.967 E219.09664
G1 X143.08 Y39.975 E219.10189
G1 X143.169 Y39.997 E219.10647
G1 X143.25 Y40.031 E219.11085
G1 X143.313 Y40.071 E219.11457
G1 X143.391 Y40.14 E219.11977
G1 X143.438 Y40.198 E219.12349
G1 X143.478 Y40.267 E219.12747
G1 X143.509 Y40.351 E219.13194
G1 X143.529 Y40.443 E219.13664
G1 X143.534 Y40.535 E219.14123
G1 X143.533 Y126.492 E223.42964
G1 X143.519 Y126.612 E223.43567
G1 X143.497 Y126.685 E223.43948
G1 X143.457 Y126.769 E223.44412
G1 X143.413 Y126.835 E223.44808
G1 X143.351 Y126.898 E223.45249
G1 X143.277 Y126.954 E223.45711
G1 X143.221 Y126.984 E223.46028
G1 X143.124 Y127.015 E223.46536
G1 X143.034 Y127.03 E223.46992
G0 F822.9 X138.1 Y72.427
G0 X131.787 Y69.503
G1 F480 X136.793 Y69.503 E223.71967
G1 X136.793 Y40.497 E225.16678
G1 X131.787 Y40.497 E225.41653
G1 X131.787 Y69.503 E226.86365
G0 F822.9 X129.173 Y69.503
G1 F480 X129.173 Y40.497 E228.31076
G1 X124.167 Y40.497 E228.56051
G1 X124.167 Y69.503 E230.00763
G1 X129.173 Y69.503 E230.25738
G0 F822.9 X121.553 Y69.503
G1 F480 X121.553 Y40.497 E231.70449
G1 X116.547 Y40.497 E231.95424
G1 X116.547 Y69.503 E233.40136
G1 X121.553 Y69.503 E233.65111
G0 F822.9 X113.933 Y69.503
G1 F480 X113.933 Y40.497 E235.09823
G1 X108.927 Y40.497 E235.34798
G1 X108.927 Y69.503 E236.79509
G1 X113.933 Y69.503 E237.04484
G0 F822.9 X106.313 Y69.503
G1 F480 X106.313 Y40.497 E238.49196
G1 X101.307 Y40.497 E238.74171
G1 X101.307 Y69.503 E240.18882
G1 X106.313 Y69.503 E240.43857
G0 F822.9 X98.693 Y69.503
G1 F480 X98.693 Y40.497 E241.88569
G1 X93.687 Y40.497 E242.13544
G1 X93.687 Y69.503 E243.58255
G1 X98.693 Y69.503 E243.8323
G0 F822.9 X91.073 Y69.503
G1 F480 X91.073 Y40.497 E245.27942
G1 X86.067 Y40.497 E245.52917
G1 X86.067 Y69.503 E246.97628
G1 X91.073 Y69.503 E247.22603
G0 F822.9 X83.453 Y69.503
G1 F480 X83.453 Y40.497 E248.67315
G1 X78.447 Y40.497 E248.9229
G1 X78.447 Y69.503 E250.37002
G1 X83.453 Y69.503 E250.61977
G0 F822.9 X75.833 Y69.503
G1 F480 X75.833 Y40.497 E252.06688
G1 X70.827 Y40.497 E252.31663
G1 X70.827 Y69.503 E253.76375
G1 X75.833 Y69.503 E254.0135
G0 F822.9 X68.213 Y69.503
G1 F480 X68.213 Y40.497 E255.46061
G1 X63.207 Y40.497 E255.71036
G1 X63.207 Y69.503 E257.15748
G1 X68.213 Y69.503 E257.40723
G0 F822.9 X61.555 Y72.428
G0 X57.269 Y126.848
G1 F480 X56.647 Y126.226 E257.45111
G0 F822.9 X56.647 Y125.66
G1 F480 X57.834 Y126.848 E257.5349
G0 F822.9 X58.4 Y126.848
G1 F480 X56.647 Y125.094 E257.65862
G0 F822.9 X56.647 Y124.529
G1 F480 X58.966 Y126.848 E257.82224
G0 F822.9 X59.532 Y126.848
